app/src/main/assets/luts/mono.cube
TITLE "Mono"
LUT_3D_SIZE 9
0.000000 0.000000 0.000000
0.019227 0.019227 0.019227
0.039657 0.039657 0.039657
0.061224 0.061224 0.061224
0.083859 0.083859 0.083859
0.107495 0.107495 0.107495
0.132065 0.132065 0.132065
0.157500 0.157500 0.157500
0.183733 0.183733 0.183733
0.069344 0.069344 0.069344
0.092352 0.092352 0.092352
0.116335 0.116335 0.116335
0.141228 0.141228 0.141228
0.166962 0.166962 0.166962
0.193469 0.193469 0.193469
0.220682 0.220682 0.220682
0.248534 0.248534 0.248534
0.276957 0.276957 0.276957
0.150503 0.150503 0.150503
0.176526 0.176526 0.176526
0.203298 0.203298 0.203298
0.230752 0.230752 0.230752
0.258820 0.258820 0.258820
0.287434 0.287434 0.287434
0.316527 0.316527 0.316527
0.346031 0.346031 0.346031
0.375878 0.375878 0.375878
0.240903 0.240903 0.240903
0.269177 0.269177 0.269177
0.297974 0.297974 0.297974
0.327224 0.327224 0.327224
0.356861 0.356861 0.356861
0.386817 0.386817 0.386817
0.417025 0.417025 0.417025
0.447416 0.447416 0.447416
0.477924 0.477924 0.477924
0.337973 0.337973 0.337973
0.367734 0.367734 0.367734
0.397789 0.397789 0.397789
0.428071 0.428071 0.428071
0.458513 0.458513 0.458513
0.489047 0.489047 0.489047
0.519605 0.519605 0.519605
0.550119 0.550119 0.550119
0.580522 0.580522 0.580522
0.439139 0.439139 0.439139
0.469622 0.469622 0.469622
0.500172 0.500172 0.500172
0.530722 0.530722 0.530722
0.561204 0.561204 0.561204
0.591550 0.591550 0.591550
0.621694 0.621694 0.621694
0.651566 0.651566 0.651566
0.681101 0.681101 0.681101
0.541831 0.541831 0.541831
0.572271 0.572271 0.572271
0.602552 0.602552 0.602552
0.632604 0.632604 0.632604
0.662361 0.662361 0.662361
0.691756 0.691756 0.691756
0.720720 0.720720 0.720720
0.749186 0.749186 0.749186
0.777087 0.777087 0.777087
0.643475 0.643475 0.643475
0.673109 0.673109 0.673109
0.702354 0.702354 0.702354
0.731145 0.731145 0.731145
0.759413 0.759413 0.759413
0.787091 0.787091 0.787091
0.814111 0.814111 0.814111
0.840407 0.840407 0.840407
0.865909 0.865909 0.865909
0.741500 0.741500 0.741500
0.769561 0.769561 0.769561
0.797008 0.797008 0.797008
0.823772 0.823772 0.823772
0.849786 0.849786 0.849786
0.874983 0.874983 0.874983
0.899295 0.899295 0.899295
0.922655 0.922655 0.922655
0.944994 0.944994 0.944994
0.006390 0.006390 0.006390
0.026034 0.026034 0.026034
0.046857 0.046857 0.046857
0.068794 0.068794 0.068794
0.091777 0.091777 0.091777
0.115738 0.115738 0.115738
0.140609 0.140609 0.140609
0.166323 0.166323 0.166323
0.192812 0.192812 0.192812
0.077044 0.077044 0.077044
0.100391 0.100391 0.100391
0.124691 0.124691 0.124691
0.149876 0.149876 0.149876
0.175880 0.175880 0.175880
0.202635 0.202635 0.202635
0.230073 0.230073 0.230073
0.258126 0.258126 0.258126
0.286728 0.286728 0.286728
0.159252 0.159252 0.159252
0.185537 0.185537 0.185537
0.212549 0.212549 0.212549
0.240218 0.240218 0.240218
0.268479 0.268479 0.268479
0.297264 0.297264 0.297264
0.326504 0.326504 0.326504
0.356132 0.356132 0.356132
0.386081 0.386081 0.386081
0.250442 0.250442 0.250442
0.278902 0.278902 0.278902
0.307860 0.307860 0.307860
0.337249 0.337249 0.337249
0.367002 0.367002 0.367002
0.397051 0.397051 0.397051
0.427329 0.427329 0.427329
0.457767 0.457767 0.457767
0.488299 0.488299 0.488299
0.348042 0.348042 0.348042
0.377911 0.377911 0.377911
0.408051 0.408051 0.408051
0.438395 0.438395 0.438395
0.468876 0.468876 0.468876
0.499425 0.499425 0.499425
0.529976 0.529976 0.529976
0.560460 0.560460 0.560460
0.590810 0.590810 0.590810
0.449480 0.449480 0.449480
0.479993 0.479993 0.479993
0.510551 0.510551 0.510551
0.541085 0.541085 0.541085
0.571528 0.571528 0.571528
0.601813 0.601813 0.601813
0.631872 0.631872 0.631872
0.661638 0.661638 0.661638
0.691042 0.691042 0.691042
0.552183 0.552183 0.552183
0.582576 0.582576 0.582576
0.612787 0.612787 0.612787
0.642746 0.642746 0.642746
0.672388 0.672388 0.672388
0.701644 0.701644 0.701644
0.730447 0.730447 0.730447
0.758728 0.758728 0.758728
0.786422 0.786422 0.786422
0.653578 0.653578 0.653578
0.683087 0.683087 0.683087
0.712186 0.712186 0.712186
0.740807 0.740807 0.740807
0.768882 0.768882 0.768882
0.796344 0.796344 0.796344
0.823126 0.823126 0.823126
0.849160 0.849160 0.849160
0.874377 0.874377 0.874377
0.751095 0.751095 0.751095
0.778955 0.778955 0.778955
0.806177 0.806177 0.806177
0.832694 0.832694 0.832694
0.858438 0.858438 0.858438
0.883342 0.883342 0.883342
0.907339 0.907339 0.907339
0.930359 0.930359 0.930359
0.952337 0.952337 0.952337
0.012925 0.012925 0.012925
0.032976 0.032976 0.032976
0.054186 0.054186 0.054186
0.076486 0.076486 0.076486
0.099808 0.099808 0.099808
0.124085 0.124085 0.124085
0.149250 0.149250 0.149250
0.175235 0.175235 0.175235
0.201972 0.201972 0.201972
0.084862 0.084862 0.084862
0.108539 0.108539 0.108539
0.133148 0.133148 0.133148
0.158619 0.158619 0.158619
0.184886 0.184886 0.184886
0.211880 0.211880 0.211880
0.239534 0.239534 0.239534
0.267782 0.267782 0.267782
0.296554 0.296554 0.296554
0.168093 0.168093 0.168093
0.194633 0.194633 0.194633
0.221875 0.221875 0.221875
0.249753 0.249753 0.249753
0.278199 0.278199 0.278199
0.307146 0.307146 0.307146
0.336525 0.336525 0.336525
0.366270 0.366270 0.366270
0.396313 0.396313 0.396313
0.260047 0.260047 0.260047
0.288683 0.288683 0.288683
0.317795 0.317795 0.317795
0.347316 0.347316 0.347316
0.377177 0.377177 0.377177
0.407311 0.407311 0.407311
0.437651 0.437651 0.437651
0.468129 0.468129 0.468129
0.498678 0.498678 0.498678
0.358151 0.358151 0.358151
0.388120 0.388120 0.388120
0.418337 0.418337 0.418337
0.448735 0.448735 0.448735
0.479246 0.479246 0.479246
0.509803 0.509803 0.509803
0.540339 0.540339 0.540339
0.570785 0.570785 0.570785
0.601075 0.601075 0.601075
0.459833 0.459833 0.459833
0.490369 0.490369 0.490369
0.520926 0.520926 0.520926
0.551437 0.551437 0.551437
0.581835 0.581835 0.581835
0.612050 0.612050 0.612050
0.642017 0.642017 0.642017
0.671667 0.671667 0.671667
0.700934 0.700934 0.700934
0.562521 0.562521 0.562521
0.592860 0.592860 0.592860
0.622993 0.622993 0.622993
0.652852 0.652852 0.652852
0.682370 0.682370 0.682370
0.711480 0.711480 0.711480
0.740113 0.740113 0.740113
0.768203 0.768203 0.768203
0.795681 0.795681 0.795681
0.663642 0.663642 0.663642
0.693019 0.693019 0.693019
0.721963 0.721963 0.721963
0.750406 0.750406 0.750406
0.778281 0.778281 0.778281
0.805519 0.805519 0.805519
0.832054 0.832054 0.832054
0.857819 0.857819 0.857819
0.882744 0.882744 0.882744
0.760623 0.760623 0.760623
0.788274 0.788274 0.788274
0.815265 0.815265 0.815265
0.841527 0.841527 0.841527
0.866994 0.866994 0.866994
0.891597 0.891597 0.891597
0.915269 0.915269 0.915269
0.937943 0.937943 0.937943
0.959551 0.959551 0.959551
0.019600 0.019600 0.019600
0.040053 0.040053 0.040053
0.061640 0.061640 0.061640
0.084295 0.084295 0.084295
0.107949 0.107949 0.107949
0.132535 0.132535 0.132535
0.157986 0.157986 0.157986
0.184234 0.184234 0.184234
0.211211 0.211211 0.211211
0.092794 0.092794 0.092794
0.116796 0.116796 0.116796
0.141705 0.141705 0.141705
0.167453 0.167453 0.167453
0.193975 0.193975 0.193975
0.221201 0.221201 0.221201
0.249064 0.249064 0.249064
0.277497 0.277497 0.277497
0.306432 0.306432 0.306432
0.177023 0.177023 0.177023
0.203809 0.203809 0.203809
0.231275 0.231275 0.231275
0.259353 0.259353 0.259353
0.287977 0.287977 0.287977
0.317078 0.317078 0.317078
0.346589 0.346589 0.346589
0.376443 0.376443 0.376443
0.406571 0.406571 0.406571
0.269715 0.269715 0.269715
0.298520 0.298520 0.298520
0.327778 0.327778 0.327778
0.357422 0.357422 0.357422
0.387383 0.387383 0.387383
0.417595 0.417595 0.417595
0.447989 0.447989 0.447989
0.478499 0.478499 0.478499
0.509056 0.509056 0.509056
0.368297 0.368297 0.368297
0.398357 0.398357 0.398357
0.428643 0.428643 0.428643
0.459087 0.459087 0.459087
0.489622 0.489622 0.489622
0.520179 0.520179 0.520179
0.550692 0.550692 0.550692
0.581093 0.581093 0.581093
0.611314 0.611314 0.611314
0.470197 0.470197 0.470197
0.500747 0.500747 0.500747
0.531297 0.531297 0.531297
0.561777 0.561777 0.561777
0.592120 0.592120 0.592120
0.622259 0.622259 0.622259
0.652125 0.652125 0.652125
0.681653 0.681653 0.681653
0.710773 0.710773 0.710773
0.572843 0.572843 0.572843
0.603119 0.603119 0.603119
0.633167 0.633167 0.633167
0.662918 0.662918 0.662918
0.692305 0.692305 0.692305
0.721261 0.721261 0.721261
0.749717 0.749717 0.749717
0.777606 0.777606 0.777606
0.804861 0.804861 0.804861
0.673663 0.673663 0.673663
0.702900 0.702900 0.702900
0.731682 0.731682 0.731682
0.759939 0.759939 0.759939
0.787606 0.787606 0.787606
0.814613 0.814613 0.814613
0.840894 0.840894 0.840894
0.866381 0.866381 0.866381
0.891006 0.891006 0.891006
0.770084 0.770084 0.770084
0.797518 0.797518 0.797518
0.824269 0.824269 0.824269
0.850268 0.850268 0.850268
0.875449 0.875449 0.875449
0.899744 0.899744 0.899744
0.923085 0.923085 0.923085
0.945404 0.945404 0.945404
0.966635 0.966635 0.966635
0.026415 0.026415 0.026415
0.047260 0.047260 0.047260
0.069217 0.069217 0.069217
0.092219 0.092219 0.092219
0.116197 0.116197 0.116197
0.141085 0.141085 0.141085
0.166814 0.166814 0.166814
0.193317 0.193317 0.193317
0.220527 0.220527 0.220527
0.100839 0.100839 0.100839
0.125156 0.125156 0.125156
0.150358 0.150358 0.150358
0.176377 0.176377 0.176377
0.203145 0.203145 0.203145
0.230595 0.230595 0.230595
0.258660 0.258660 0.258660
0.287271 0.287271 0.287271
0.316361 0.316361 0.316361
0.186039 0.186039 0.186039
0.213063 0.213063 0.213063
0.240745 0.240745 0.240745
0.269016 0.269016 0.269016
0.297810 0.297810 0.297810
0.327058 0.327058 0.327058
0.356693 0.356693 0.356693
0.386647 0.386647 0.386647
0.416854 0.416854 0.416854
0.279442 0.279442 0.279442
0.308409 0.308409 0.308409
0.337806 0.337806 0.337806
0.367565 0.367565 0.367565
0.397619 0.397619 0.397619
0.427900 0.427900 0.427900
0.458341 0.458341 0.458341
0.488874 0.488874 0.488874
0.519432 0.519432 0.519432
0.378476 0.378476 0.378476
0.408620 0.408620 0.408620
0.438968 0.438968 0.438968
0.469450 0.469450 0.469450
0.500000 0.500000 0.500000
0.530550 0.530550 0.530550
0.561032 0.561032 0.561032
0.591380 0.591380 0.591380
0.621524 0.621524 0.621524
0.480568 0.480568 0.480568
0.511126 0.511126 0.511126
0.541659 0.541659 0.541659
0.572100 0.572100 0.572100
0.602381 0.602381 0.602381
0.632435 0.632435 0.632435
0.662194 0.662194 0.662194
0.691591 0.691591 0.691591
0.720558 0.720558 0.720558
0.583146 0.583146 0.583146
0.613353 0.613353 0.613353
0.643307 0.643307 0.643307
0.672942 0.672942 0.672942
0.702190 0.702190 0.702190
0.730984 0.730984 0.730984
0.759255 0.759255 0.759255
0.786937 0.786937 0.786937
0.813961 0.813961 0.813961
0.683639 0.683639 0.683639
0.712729 0.712729 0.712729
0.741340 0.741340 0.741340
0.769405 0.769405 0.769405
0.796855 0.796855 0.796855
0.823623 0.823623 0.823623
0.849642 0.849642 0.849642
0.874844 0.874844 0.874844
0.899161 0.899161 0.899161
0.779473 0.779473 0.779473
0.806683 0.806683 0.806683
0.833186 0.833186 0.833186
0.858915 0.858915 0.858915
0.883803 0.883803 0.883803
0.907781 0.907781 0.907781
0.930783 0.930783 0.930783
0.952740 0.952740 0.952740
0.973585 0.973585 0.973585
0.033365 0.033365 0.033365
0.054596 0.054596 0.054596
0.076915 0.076915 0.076915
0.100256 0.100256 0.100256
0.124551 0.124551 0.124551
0.149732 0.149732 0.149732
0.175731 0.175731 0.175731
0.202482 0.202482 0.202482
0.229916 0.229916 0.229916
0.108994 0.108994 0.108994
0.133619 0.133619 0.133619
0.159106 0.159106 0.159106
0.185387 0.185387 0.185387
0.212394 0.212394 0.212394
0.240061 0.240061 0.240061
0.268318 0.268318 0.268318
0.297100 0.297100 0.297100
0.326337 0.326337 0.326337
0.195139 0.195139 0.195139
0.222394 0.222394 0.222394
0.250283 0.250283 0.250283
0.278739 0.278739 0.278739
0.307695 0.307695 0.307695
0.337082 0.337082 0.337082
0.366833 0.366833 0.366833
0.396881 0.396881 0.396881
0.427157 0.427157 0.427157
0.289227 0.289227 0.289227
0.318347 0.318347 0.318347
0.347875 0.347875 0.347875
0.377741 0.377741 0.377741
0.407880 0.407880 0.407880
0.438223 0.438223 0.438223
0.468703 0.468703 0.468703
0.499253 0.499253 0.499253
0.529803 0.529803 0.529803
0.388686 0.388686 0.388686
0.418907 0.418907 0.418907
0.449308 0.449308 0.449308
0.479821 0.479821 0.479821
0.510378 0.510378 0.510378
0.540913 0.540913 0.540913
0.571357 0.571357 0.571357
0.601643 0.601643 0.601643
0.631703 0.631703 0.631703
0.490944 0.490944 0.490944
0.521501 0.521501 0.521501
0.552011 0.552011 0.552011
0.582405 0.582405 0.582405
0.612617 0.612617 0.612617
0.642578 0.642578 0.642578
0.672222 0.672222 0.672222
0.701480 0.701480 0.701480
0.730285 0.730285 0.730285
0.593429 0.593429 0.593429
0.623557 0.623557 0.623557
0.653411 0.653411 0.653411
0.682922 0.682922 0.682922
0.712023 0.712023 0.712023
0.740647 0.740647 0.740647
0.768725 0.768725 0.768725
0.796191 0.796191 0.796191
0.822977 0.822977 0.822977
0.693568 0.693568 0.693568
0.722503 0.722503 0.722503
0.750936 0.750936 0.750936
0.778799 0.778799 0.778799
0.806025 0.806025 0.806025
0.832547 0.832547 0.832547
0.858295 0.858295 0.858295
0.883204 0.883204 0.883204
0.907206 0.907206 0.907206
0.788789 0.788789 0.788789
0.815766 0.815766 0.815766
0.842014 0.842014 0.842014
0.867465 0.867465 0.867465
0.892051 0.892051 0.892051
0.915705 0.915705 0.915705
0.938360 0.938360 0.938360
0.959947 0.959947 0.959947
0.980400 0.980400 0.980400
0.040449 0.040449 0.040449
0.062057 0.062057 0.062057
0.084731 0.084731 0.084731
0.108403 0.108403 0.108403
0.133006 0.133006 0.133006
0.158473 0.158473 0.158473
0.184735 0.184735 0.184735
0.211726 0.211726 0.211726
0.239377 0.239377 0.239377
0.117256 0.117256 0.117256
0.142181 0.142181 0.142181
0.167946 0.167946 0.167946
0.194481 0.194481 0.194481
0.221719 0.221719 0.221719
0.249594 0.249594 0.249594
0.278037 0.278037 0.278037
0.306981 0.306981 0.306981
0.336358 0.336358 0.336358
0.204319 0.204319 0.204319
0.231797 0.231797 0.231797
0.259887 0.259887 0.259887
0.288520 0.288520 0.288520
0.317630 0.317630 0.317630
0.347148 0.347148 0.347148
0.377007 0.377007 0.377007
0.407140 0.407140 0.407140
0.437479 0.437479 0.437479
0.299066 0.299066 0.299066
0.328333 0.328333 0.328333
0.357983 0.357983 0.357983
0.387950 0.387950 0.387950
0.418165 0.418165 0.418165
0.448563 0.448563 0.448563
0.479074 0.479074 0.479074
0.509631 0.509631 0.509631
0.540167 0.540167 0.540167
0.398925 0.398925 0.398925
0.429215 0.429215 0.429215
0.459661 0.459661 0.459661
0.490197 0.490197 0.490197
0.520754 0.520754 0.520754
0.551265 0.551265 0.551265
0.581663 0.581663 0.581663
0.611880 0.611880 0.611880
0.641849 0.641849 0.641849
0.501322 0.501322 0.501322
0.531871 0.531871 0.531871
0.562349 0.562349 0.562349
0.592689 0.592689 0.592689
0.622823 0.622823 0.622823
0.652684 0.652684 0.652684
0.682205 0.682205 0.682205
0.711317 0.711317 0.711317
0.739953 0.739953 0.739953
0.603687 0.603687 0.603687
0.633730 0.633730 0.633730
0.663475 0.663475 0.663475
0.692854 0.692854 0.692854
0.721801 0.721801 0.721801
0.750247 0.750247 0.750247
0.778125 0.778125 0.778125
0.805367 0.805367 0.805367
0.831907 0.831907 0.831907
0.703446 0.703446 0.703446
0.732218 0.732218 0.732218
0.760466 0.760466 0.760466
0.788120 0.788120 0.788120
0.815114 0.815114 0.815114
0.841381 0.841381 0.841381
0.866852 0.866852 0.866852
0.891461 0.891461 0.891461
0.915138 0.915138 0.915138
0.798028 0.798028 0.798028
0.824765 0.824765 0.824765
0.850750 0.850750 0.850750
0.875915 0.875915 0.875915
0.900192 0.900192 0.900192
0.923514 0.923514 0.923514
0.945814 0.945814 0.945814
0.967024 0.967024 0.967024
0.987075 0.987075 0.987075
0.047663 0.047663 0.047663
0.069641 0.069641 0.069641
0.092661 0.092661 0.092661
0.116658 0.116658 0.116658
0.141562 0.141562 0.141562
0.167306 0.167306 0.167306
0.193823 0.193823 0.193823
0.221045 0.221045 0.221045
0.248905 0.248905 0.248905
0.125623 0.125623 0.125623
0.150840 0.150840 0.150840
0.176874 0.176874 0.176874
0.203656 0.203656 0.203656
0.231118 0.231118 0.231118
0.259193 0.259193 0.259193
0.287814 0.287814 0.287814
0.316913 0.316913 0.316913
0.346422 0.346422 0.346422
0.213578 0.213578 0.213578
0.241272 0.241272 0.241272
0.269553 0.269553 0.269553
0.298356 0.298356 0.298356
0.327612 0.327612 0.327612
0.357254 0.357254 0.357254
0.387213 0.387213 0.387213
0.417424 0.417424 0.417424
0.447817 0.447817 0.447817
0.308958 0.308958 0.308958
0.338362 0.338362 0.338362
0.368128 0.368128 0.368128
0.398187 0.398187 0.398187
0.428472 0.428472 0.428472
0.458915 0.458915 0.458915
0.489449 0.489449 0.489449
0.520007 0.520007 0.520007
0.550520 0.550520 0.550520
0.409190 0.409190 0.409190
0.439540 0.439540 0.439540
0.470024 0.470024 0.470024
0.500575 0.500575 0.500575
0.531124 0.531124 0.531124
0.561605 0.561605 0.561605
0.591949 0.591949 0.591949
0.622089 0.622089 0.622089
0.651958 0.651958 0.651958
0.511701 0.511701 0.511701
0.542233 0.542233 0.542233
0.572671 0.572671 0.572671
0.602949 0.602949 0.602949
0.632998 0.632998 0.632998
0.662751 0.662751 0.662751
0.692140 0.692140 0.692140
0.721098 0.721098 0.721098
0.749558 0.749558 0.749558
0.613919 0.613919 0.613919
0.643868 0.643868 0.643868
0.673496 0.673496 0.673496
0.702736 0.702736 0.702736
0.731521 0.731521 0.731521
0.759782 0.759782 0.759782
0.787451 0.787451 0.787451
0.814463 0.814463 0.814463
0.840748 0.840748 0.840748
0.713272 0.713272 0.713272
0.741874 0.741874 0.741874
0.769927 0.769927 0.769927
0.797365 0.797365 0.797365
0.824120 0.824120 0.824120
0.850124 0.850124 0.850124
0.875309 0.875309 0.875309
0.899609 0.899609 0.899609
0.922956 0.922956 0.922956
0.807188 0.807188 0.807188
0.833677 0.833677 0.833677
0.859391 0.859391 0.859391
0.884262 0.884262 0.884262
0.908223 0.908223 0.908223
0.931206 0.931206 0.931206
0.953143 0.953143 0.953143
0.973966 0.973966 0.973966
0.993610 0.993610 0.993610
0.055006 0.055006 0.055006
0.077345 0.077345 0.077345
0.100705 0.100705 0.100705
0.125017 0.125017 0.125017
0.150214 0.150214 0.150214
0.176228 0.176228 0.176228
0.202992 0.202992 0.202992
0.230439 0.230439 0.230439
0.258500 0.258500 0.258500
0.134091 0.134091 0.134091
0.159593 0.159593 0.159593
0.185889 0.185889 0.185889
0.212909 0.212909 0.212909
0.240587 0.240587 0.240587
0.268855 0.268855 0.268855
0.297646 0.297646 0.297646
0.326891 0.326891 0.326891
0.356525 0.356525 0.356525
0.222913 0.222913 0.222913
0.250814 0.250814 0.250814
0.279280 0.279280 0.279280
0.308244 0.308244 0.308244
0.337639 0.337639 0.337639
0.367396 0.367396 0.367396
0.397448 0.397448 0.397448
0.427729 0.427729 0.427729
0.458169 0.458169 0.458169
0.318899 0.318899 0.318899
0.348434 0.348434 0.348434
0.378306 0.378306 0.378306
0.408450 0.408450 0.408450
0.438796 0.438796 0.438796
0.469278 0.469278 0.469278
0.499828 0.499828 0.499828
0.530378 0.530378 0.530378
0.560861 0.560861 0.560861
0.419478 0.419478 0.419478
0.449881 0.449881 0.449881
0.480395 0.480395 0.480395
0.510953 0.510953 0.510953
0.541487 0.541487 0.541487
0.571929 0.571929 0.571929
0.602211 0.602211 0.602211
0.632266 0.632266 0.632266
0.662027 0.662027 0.662027
0.522076 0.522076 0.522076
0.552584 0.552584 0.552584
0.582975 0.582975 0.582975
0.613183 0.613183 0.613183
0.643139 0.643139 0.643139
0.672776 0.672776 0.672776
0.702026 0.702026 0.702026
0.730823 0.730823 0.730823
0.759097 0.759097 0.759097
0.624122 0.624122 0.624122
0.653969 0.653969 0.653969
0.683473 0.683473 0.683473
0.712566 0.712566 0.712566
0.741180 0.741180 0.741180
0.769248 0.769248 0.769248
0.796702 0.796702 0.796702
0.823474 0.823474 0.823474
0.849497 0.849497 0.849497
0.723043 0.723043 0.723043
0.751466 0.751466 0.751466
0.779318 0.779318 0.779318
0.806531 0.806531 0.806531
0.833038 0.833038 0.833038
0.858772 0.858772 0.858772
0.883665 0.883665 0.883665
0.907648 0.907648 0.907648
0.930656 0.930656 0.930656
0.816267 0.816267 0.816267
0.842500 0.842500 0.842500
0.867935 0.867935 0.867935
0.892505 0.892505 0.892505
0.916141 0.916141 0.916141
0.938776 0.938776 0.938776
0.960343 0.960343 0.960343
0.980773 0.980773 0.980773
1.000000 1.000000 1.000000
