app/src/main/assets/luts/mono.cube
TITLE "Mono"
LUT_3D_SIZE 5
0.000000 0.000000 0.000000
0.039657 0.039657 0.039657
0.083859 0.083859 0.083859
0.132065 0.132065 0.132065
0.183733 0.183733 0.183733
0.150503 0.150503 0.150503
0.203298 0.203298 0.203298
0.258820 0.258820 0.258820
0.316527 0.316527 0.316527
0.375878 0.375878 0.375878
0.337973 0.337973 0.337973
0.397789 0.397789 0.397789
0.458513 0.458513 0.458513
0.519605 0.519605 0.519605
0.580522 0.580522 0.580522
0.541831 0.541831 0.541831
0.602552 0.602552 0.602552
0.662361 0.662361 0.662361
0.720720 0.720720 0.720720
0.777087 0.777087 0.777087
0.741500 0.741500 0.741500
0.797008 0.797008 0.797008
0.849786 0.849786 0.849786
0.899295 0.899295 0.899295
0.944994 0.944994 0.944994
0.012925 0.012925 0.012925
0.054186 0.054186 0.054186
0.099808 0.099808 0.099808
0.149250 0.149250 0.149250
0.201972 0.201972 0.201972
0.168093 0.168093 0.168093
0.221875 0.221875 0.221875
0.278199 0.278199 0.278199
0.336525 0.336525 0.336525
0.396313 0.396313 0.396313
0.358151 0.358151 0.358151
0.418337 0.418337 0.418337
0.479246 0.479246 0.479246
0.540339 0.540339 0.540339
0.601075 0.601075 0.601075
0.562521 0.562521 0.562521
0.622993 0.622993 0.622993
0.682370 0.682370 0.682370
0.740113 0.740113 0.740113
0.795681 0.795681 0.795681
0.760623 0.760623 0.760623
0.815265 0.815265 0.815265
0.866994 0.866994 0.866994
0.915269 0.915269 0.915269
0.959551 0.959551 0.959551
0.026415 0.026415 0.026415
0.069217 0.069217 0.069217
0.116197 0.116197 0.116197
0.166814 0.166814 0.166814
0.220527 0.220527 0.220527
0.186039 0.186039 0.186039
0.240745 0.240745 0.240745
0.297810 0.297810 0.297810
0.356693 0.356693 0.356693
0.416854 0.416854 0.416854
0.378476 0.378476 0.378476
0.438968 0.438968 0.438968
0.500000 0.500000 0.500000
0.561032 0.561032 0.561032
0.621524 0.621524 0.621524
0.583146 0.583146 0.583146
0.643307 0.643307 0.643307
0.702190 0.702190 0.702190
0.759255 0.759255 0.759255
0.813961 0.813961 0.813961
0.779473 0.779473 0.779473
0.833186 0.833186 0.833186
0.883803 0.883803 0.883803
0.930783 0.930783 0.930783
0.973585 0.973585 0.973585
0.040449 0.040449 0.040449
0.084731 0.084731 0.084731
0.133006 0.133006 0.133006
0.184735 0.184735 0.184735
0.239377 0.239377 0.239377
0.204319 0.204319 0.204319
0.259887 0.259887 0.259887
0.317630 0.317630 0.317630
0.377007 0.377007 0.377007
0.437479 0.437479 0.437479
0.398925 0.398925 0.398925
0.459661 0.459661 0.459661
0.520754 0.520754 0.520754
0.581663 0.581663 0.581663
0.641849 0.641849 0.641849
0.603687 0.603687 0.603687
0.663475 0.663475 0.663475
0.721801 0.721801 0.721801
0.778125 0.778125 0.778125
0.831907 0.831907 0.831907
0.798028 0.798028 0.798028
0.850750 0.850750 0.850750
0.900192 0.900192 0.900192
0.945814 0.945814 0.945814
0.987075 0.987075 0.987075
0.055006 0.055006 0.055006
0.100705 0.100705 0.100705
0.150214 0.150214 0.150214
0.202992 0.202992 0.202992
0.258500 0.258500 0.258500
0.222913 0.222913 0.222913
0.279280 0.279280 0.279280
0.337639 0.337639 0.337639
0.397448 0.397448 0.397448
0.458169 0.458169 0.458169
0.419478 0.419478 0.419478
0.480395 0.480395 0.480395
0.541487 0.541487 0.541487
0.602211 0.602211 0.602211
0.662027 0.662027 0.662027
0.624122 0.624122 0.624122
0.683473 0.683473 0.683473
0.741180 0.741180 0.741180
0.796702 0.796702 0.796702
0.849497 0.849497 0.849497
0.816267 0.816267 0.816267
0.867935 0.867935 0.867935
0.916141 0.916141 0.916141
0.960343 0.960343 0.960343
1.000000 1.000000 1.000000
