app/src/main/assets/luts/mono.cube
TITLE "Mono"
LUT_3D_SIZE 17
0.000000 0.000000 0.000000
0.009459 0.009459 0.009459
0.019227 0.019227 0.019227
0.029296 0.029296 0.029296
0.039657 0.039657 0.039657
0.050303 0.050303 0.050303
0.061224 0.061224 0.061224
0.072412 0.072412 0.072412
0.083859 0.083859 0.083859
0.095556 0.095556 0.095556
0.107495 0.107495 0.107495
0.119667 0.119667 0.119667
0.132065 0.132065 0.132065
0.144678 0.144678 0.144678
0.157500 0.157500 0.157500
0.170521 0.170521 0.170521
0.183733 0.183733 0.183733
0.033035 0.033035 0.033035
0.043501 0.043501 0.043501
0.054247 0.054247 0.054247
0.065267 0.065267 0.065267
0.076550 0.076550 0.076550
0.088089 0.088089 0.088089
0.099875 0.099875 0.099875
0.111900 0.111900 0.111900
0.124155 0.124155 0.124155
0.136632 0.136632 0.136632
0.149322 0.149322 0.149322
0.162218 0.162218 0.162218
0.175309 0.175309 0.175309
0.188589 0.188589 0.188589
0.202049 0.202049 0.202049
0.215679 0.215679 0.215679
0.229472 0.229472 0.229472
0.069344 0.069344 0.069344
0.080722 0.080722 0.080722
0.092352 0.092352 0.092352
0.104226 0.104226 0.104226
0.116335 0.116335 0.116335
0.128672 0.128672 0.128672
0.141228 0.141228 0.141228
0.153994 0.153994 0.153994
0.166962 0.166962 0.166962
0.180123 0.180123 0.180123
0.193469 0.193469 0.193469
0.206992 0.206992 0.206992
0.220682 0.220682 0.220682
0.234533 0.234533 0.234533
0.248534 0.248534 0.248534
0.262679 0.262679 0.262679
0.276957 0.276957 0.276957
0.108608 0.108608 0.108608
0.120801 0.120801 0.120801
0.133218 0.133218 0.133218
0.145852 0.145852 0.145852
0.158692 0.158692 0.158692
0.171731 0.171731 0.171731
0.184961 0.184961 0.184961
0.198372 0.198372 0.198372
0.211957 0.211957 0.211957
0.225707 0.225707 0.225707
0.239613 0.239613 0.239613
0.253668 0.253668 0.253668
0.267862 0.267862 0.267862
0.282187 0.282187 0.282187
0.296636 0.296636 0.296636
0.311198 0.311198 0.311198
0.325867 0.325867 0.325867
0.150503 0.150503 0.150503
0.163417 0.163417 0.163417
0.176526 0.176526 0.176526
0.189823 0.189823 0.189823
0.203298 0.203298 0.203298
0.216944 0.216944 0.216944
0.230752 0.230752 0.230752
0.244713 0.244713 0.244713
0.258820 0.258820 0.258820
0.273063 0.273063 0.273063
0.287434 0.287434 0.287434
0.301925 0.301925 0.301925
0.316527 0.316527 0.316527
0.331231 0.331231 0.331231
0.346031 0.346031 0.346031
0.360916 0.360916 0.360916
0.375878 0.375878 0.375878
0.194708 0.194708 0.194708
0.208247 0.208247 0.208247
0.221953 0.221953 0.221953
0.235818 0.235818 0.235818
0.249833 0.249833 0.249833
0.263990 0.263990 0.263990
0.278280 0.278280 0.278280
0.292696 0.292696 0.292696
0.307228 0.307228 0.307228
0.321869 0.321869 0.321869
0.336609 0.336609 0.336609
0.351440 0.351440 0.351440
0.366355 0.366355 0.366355
0.381343 0.381343 0.381343
0.396398 0.396398 0.396398
0.411510 0.411510 0.411510
0.426672 0.426672 0.426672
0.240903 0.240903 0.240903
0.254971 0.254971 0.254971
0.269177 0.269177 0.269177
0.283514 0.283514 0.283514
0.297974 0.297974 0.297974
0.312546 0.312546 0.312546
0.327224 0.327224 0.327224
0.341998 0.341998 0.341998
0.356861 0.356861 0.356861
0.371803 0.371803 0.371803
0.386817 0.386817 0.386817
0.401894 0.401894 0.401894
0.417025 0.417025 0.417025
0.432202 0.432202 0.432202
0.447416 0.447416 0.447416
0.462660 0.462660 0.462660
0.477924 0.477924 0.477924
0.288765 0.288765 0.288765
0.303266 0.303266 0.303266
0.317878 0.317878 0.317878
0.332592 0.332592 0.332592
0.347400 0.347400 0.347400
0.362292 0.362292 0.362292
0.377262 0.377262 0.377262
0.392299 0.392299 0.392299
0.407397 0.407397 0.407397
0.422545 0.422545 0.422545
0.437737 0.437737 0.437737
0.452963 0.452963 0.452963
0.468215 0.468215 0.468215
0.483485 0.483485 0.483485
0.498764 0.498764 0.498764
0.514043 0.514043 0.514043
0.529315 0.529315 0.529315
0.337973 0.337973 0.337973
0.352812 0.352812 0.352812
0.367734 0.367734 0.367734
0.382729 0.382729 0.382729
0.397789 0.397789 0.397789
0.412906 0.412906 0.412906
0.428071 0.428071 0.428071
0.443277 0.443277 0.443277
0.458513 0.458513 0.458513
0.473773 0.473773 0.473773
0.489047 0.489047 0.489047
0.504327 0.504327 0.504327
0.519605 0.519605 0.519605
0.534871 0.534871 0.534871
0.550119 0.550119 0.550119
0.565339 0.565339 0.565339
0.580522 0.580522 0.580522
0.388205 0.388205 0.388205
0.403287 0.403287 0.403287
0.418422 0.418422 0.418422
0.433603 0.433603 0.433603
0.448821 0.448821 0.448821
0.464066 0.464066 0.464066
0.479332 0.479332 0.479332
0.494609 0.494609 0.494609
0.509890 0.509890 0.509890
0.525164 0.525164 0.525164
0.540425 0.540425 0.540425
0.555664 0.555664 0.555664
0.570871 0.570871 0.570871
0.586040 0.586040 0.586040
0.601160 0.601160 0.601160
0.616225 0.616225 0.616225
0.631225 0.631225 0.631225
0.439139 0.439139 0.439139
0.454368 0.454368 0.454368
0.469622 0.469622 0.469622
0.484893 0.484893 0.484893
0.500172 0.500172 0.500172
0.515452 0.515452 0.515452
0.530722 0.530722 0.530722
0.545976 0.545976 0.545976
0.561204 0.561204 0.561204
0.576398 0.576398 0.576398
0.591550 0.591550 0.591550
0.606652 0.606652 0.606652
0.621694 0.621694 0.621694
0.636668 0.636668 0.636668
0.651566 0.651566 0.651566
0.666380 0.666380 0.666380
0.681101 0.681101 0.681101
0.490455 0.490455 0.490455
0.505736 0.505736 0.505736
0.521013 0.521013 0.521013
0.536278 0.536278 0.536278
0.551523 0.551523 0.551523
0.566740 0.566740 0.566740
0.581920 0.581920 0.581920
0.597055 0.597055 0.597055
0.612135 0.612135 0.612135
0.627154 0.627154 0.627154
0.642101 0.642101 0.642101
0.656970 0.656970 0.656970
0.671751 0.671751 0.671751
0.686435 0.686435 0.686435
0.701016 0.701016 0.701016
0.715483 0.715483 0.715483
0.729829 0.729829 0.729829
0.541831 0.541831 0.541831
0.557067 0.557067 0.557067
0.572271 0.572271 0.572271
0.587436 0.587436 0.587436
0.602552 0.602552 0.602552
0.617611 0.617611 0.617611
0.632604 0.632604 0.632604
0.647524 0.647524 0.647524
0.662361 0.662361 0.662361
0.677108 0.677108 0.677108
0.691756 0.691756 0.691756
0.706296 0.706296 0.706296
0.720720 0.720720 0.720720
0.735020 0.735020 0.735020
0.749186 0.749186 0.749186
0.763212 0.763212 0.763212
0.777087 0.777087 0.777087
0.592945 0.592945 0.592945
0.608041 0.608041 0.608041
0.623077 0.623077 0.623077
0.638045 0.638045 0.638045
0.652936 0.652936 0.652936
0.667741 0.667741 0.667741
0.682453 0.682453 0.682453
0.697062 0.697062 0.697062
0.711561 0.711561 0.711561
0.725941 0.725941 0.725941
0.740193 0.740193 0.740193
0.754309 0.754309 0.754309
0.768281 0.768281 0.768281
0.782100 0.782100 0.782100
0.795757 0.795757 0.795757
0.809245 0.809245 0.809245
0.822554 0.822554 0.822554
0.643475 0.643475 0.643475
0.658336 0.658336 0.658336
0.673109 0.673109 0.673109
0.687784 0.687784 0.687784
0.702354 0.702354 0.702354
0.716811 0.716811 0.716811
0.731145 0.731145 0.731145
0.745348 0.745348 0.745348
0.759413 0.759413 0.759413
0.773330 0.773330 0.773330
0.787091 0.787091 0.787091
0.800688 0.800688 0.800688
0.814111 0.814111 0.814111
0.827354 0.827354 0.827354
0.840407 0.840407 0.840407
0.853261 0.853261 0.853261
0.865909 0.865909 0.865909
0.693101 0.693101 0.693101
0.707631 0.707631 0.707631
0.722044 0.722044 0.722044
0.736331 0.736331 0.736331
0.750485 0.750485 0.750485
0.764497 0.764497 0.764497
0.778358 0.778358 0.778358
0.792061 0.792061 0.792061
0.805595 0.805595 0.805595
0.818954 0.818954 0.818954
0.832128 0.832128 0.832128
0.845110 0.845110 0.845110
0.857890 0.857890 0.857890
0.870461 0.870461 0.870461
0.882813 0.882813 0.882813
0.894939 0.894939 0.894939
0.906829 0.906829 0.906829
0.741500 0.741500 0.741500
0.755604 0.755604 0.755604
0.769561 0.769561 0.769561
0.783366 0.783366 0.783366
0.797008 0.797008 0.797008
0.810479 0.810479 0.810479
0.823772 0.823772 0.823772
0.836877 0.836877 0.836877
0.849786 0.849786 0.849786
0.862491 0.862491 0.862491
0.874983 0.874983 0.874983
0.887254 0.887254 0.887254
0.899295 0.899295 0.899295
0.911098 0.911098 0.911098
0.922655 0.922655 0.922655
0.933956 0.933956 0.933956
0.944994 0.944994 0.944994
0.003177 0.003177 0.003177
0.012742 0.012742 0.012742
0.022613 0.022613 0.022613
0.032782 0.032782 0.032782
0.043241 0.043241 0.043241
0.053981 0.053981 0.053981
0.064994 0.064994 0.064994
0.076271 0.076271 0.076271
0.087804 0.087804 0.087804
0.099584 0.099584 0.099584
0.111603 0.111603 0.111603
0.123853 0.123853 0.123853
0.136324 0.136324 0.136324
0.149010 0.149010 0.149010
0.161900 0.161900 0.161900
0.174987 0.174987 0.174987
0.188262 0.188262 0.188262
0.036557 0.036557 0.036557
0.047119 0.047119 0.047119
0.057959 0.057959 0.057959
0.069069 0.069069 0.069069
0.080440 0.080440 0.080440
0.092064 0.092064 0.092064
0.103932 0.103932 0.103932
0.116037 0.116037 0.116037
0.128368 0.128368 0.128368
0.140918 0.140918 0.140918
0.153679 0.153679 0.153679
0.166642 0.166642 0.166642
0.179799 0.179799 0.179799
0.193140 0.193140 0.193140
0.206659 0.206659 0.206659
0.220346 0.220346 0.220346
0.234192 0.234192 0.234192
0.073179 0.073179 0.073179
0.084644 0.084644 0.084644
0.096357 0.096357 0.096357
0.108312 0.108312 0.108312
0.120500 0.120500 0.120500
0.132912 0.132912 0.132912
0.145540 0.145540 0.145540
0.158376 0.158376 0.158376
0.171410 0.171410 0.171410
0.184635 0.184635 0.184635
0.198042 0.198042 0.198042
0.211623 0.211623 0.211623
0.225369 0.225369 0.225369
0.239271 0.239271 0.239271
0.253322 0.253322 0.253322
0.267513 0.267513 0.267513
0.281836 0.281836 0.281836
0.112723 0.112723 0.112723
0.124993 0.124993 0.124993
0.137485 0.137485 0.137485
0.150189 0.150189 0.150189
0.163098 0.163098 0.163098
0.176203 0.176203 0.176203
0.189495 0.189495 0.189495
0.202967 0.202967 0.202967
0.216608 0.216608 0.216608
0.230412 0.230412 0.230412
0.244370 0.244370 0.244370
0.258473 0.258473 0.258473
0.272713 0.272713 0.272713
0.287081 0.287081 0.287081
0.301569 0.301569 0.301569
0.316168 0.316168 0.316168
0.330871 0.330871 0.330871
0.154866 0.154866 0.154866
0.167847 0.167847 0.167847
0.181021 0.181021 0.181021
0.194379 0.194379 0.194379
0.207914 0.207914 0.207914
0.221616 0.221616 0.221616
0.235477 0.235477 0.235477
0.249488 0.249488 0.249488
0.263642 0.263642 0.263642
0.277929 0.277929 0.277929
0.292342 0.292342 0.292342
0.306871 0.306871 0.306871
0.321509 0.321509 0.321509
0.336247 0.336247 0.336247
0.351077 0.351077 0.351077
0.365989 0.365989 0.365989
0.380976 0.380976 0.380976
0.199287 0.199287 0.199287
0.212883 0.212883 0.212883
0.226644 0.226644 0.226644
0.240561 0.240561 0.240561
0.254625 0.254625 0.254625
0.268828 0.268828 0.268828
0.283162 0.283162 0.283162
0.297619 0.297619 0.297619
0.312188 0.312188 0.312188
0.326864 0.326864 0.326864
0.341636 0.341636 0.341636
0.356496 0.356496 0.356496
0.371437 0.371437 0.371437
0.386449 0.386449 0.386449
0.401524 0.401524 0.401524
0.416654 0.416654 0.416654
0.431830 0.431830 0.431830
0.245664 0.245664 0.245664
0.259780 0.259780 0.259780
0.274032 0.274032 0.274032
0.288412 0.288412 0.288412
0.302910 0.302910 0.302910
0.317519 0.317519 0.317519
0.332231 0.332231 0.332231
0.347036 0.347036 0.347036
0.361927 0.361927 0.361927
0.376895 0.376895 0.376895
0.391931 0.391931 0.391931
0.407027 0.407027 0.407027
0.422174 0.422174 0.422174
0.437365 0.437365 0.437365
0.452590 0.452590 0.452590
0.467842 0.467842 0.467842
0.483111 0.483111 0.483111
0.293677 0.293677 0.293677
0.308217 0.308217 0.308217
0.322864 0.322864 0.322864
0.337611 0.337611 0.337611
0.352448 0.352448 0.352448
0.367368 0.367368 0.367368
0.382361 0.382361 0.382361
0.397420 0.397420 0.397420
0.412536 0.412536 0.412536
0.427700 0.427700 0.427700
0.442904 0.442904 0.442904
0.458140 0.458140 0.458140
0.473399 0.473399 0.473399
0.488673 0.488673 0.488673
0.503953 0.503953 0.503953
0.519231 0.519231 0.519231
0.534498 0.534498 0.534498
0.343002 0.343002 0.343002
0.357871 0.357871 0.357871
0.372818 0.372818 0.372818
0.387836 0.387836 0.387836
0.402917 0.402917 0.402917
0.418051 0.418051 0.418051
0.433231 0.433231 0.433231
0.448448 0.448448 0.448448
0.463693 0.463693 0.463693
0.478959 0.478959 0.478959
0.494236 0.494236 0.494236
0.509516 0.509516 0.509516
0.524791 0.524791 0.524791
0.540052 0.540052 0.540052
0.555291 0.555291 0.555291
0.570500 0.570500 0.570500
0.585669 0.585669 0.585669
0.393320 0.393320 0.393320
0.408421 0.408421 0.408421
0.423573 0.423573 0.423573
0.438767 0.438767 0.438767
0.453995 0.453995 0.453995
0.469249 0.469249 0.469249
0.484520 0.484520 0.484520
0.499799 0.499799 0.499799
0.515078 0.515078 0.515078
0.530349 0.530349 0.530349
0.545603 0.545603 0.545603
0.560832 0.560832 0.560832
0.576027 0.576027 0.576027
0.591180 0.591180 0.591180
0.606283 0.606283 0.606283
0.621327 0.621327 0.621327
0.636303 0.636303 0.636303
0.444308 0.444308 0.444308
0.459546 0.459546 0.459546
0.474807 0.474807 0.474807
0.490082 0.490082 0.490082
0.505362 0.505362 0.505362
0.520639 0.520639 0.520639
0.535905 0.535905 0.535905
0.551151 0.551151 0.551151
0.566368 0.566368 0.566368
0.581549 0.581549 0.581549
0.596685 0.596685 0.596685
0.611767 0.611767 0.611767
0.626787 0.626787 0.626787
0.641737 0.641737 0.641737
0.656607 0.656607 0.656607
0.671390 0.671390 0.671390
0.686077 0.686077 0.686077
0.495644 0.495644 0.495644
0.510924 0.510924 0.510924
0.526199 0.526199 0.526199
0.541458 0.541458 0.541458
0.556695 0.556695 0.556695
0.571900 0.571900 0.571900
0.587065 0.587065 0.587065
0.602183 0.602183 0.602183
0.617243 0.617243 0.617243
0.632238 0.632238 0.632238
0.647160 0.647160 0.647160
0.662000 0.662000 0.662000
0.676749 0.676749 0.676749
0.691399 0.691399 0.691399
0.705942 0.705942 0.705942
0.720369 0.720369 0.720369
0.734672 0.734672 0.734672
0.547008 0.547008 0.547008
0.562234 0.562234 0.562234
0.577426 0.577426 0.577426
0.592575 0.592575 0.592575
0.607673 0.607673 0.607673
0.622710 0.622710 0.622710
0.637680 0.637680 0.637680
0.652573 0.652573 0.652573
0.667380 0.667380 0.667380
0.682094 0.682094 0.682094
0.696706 0.696706 0.696706
0.711208 0.711208 0.711208
0.725591 0.725591 0.725591
0.739846 0.739846 0.739846
0.753966 0.753966 0.753966
0.767941 0.767941 0.767941
0.781764 0.781764 0.781764
0.598078 0.598078 0.598078
0.613155 0.613155 0.613155
0.628168 0.628168 0.628168
0.643111 0.643111 0.643111
0.657974 0.657974 0.657974
0.672748 0.672748 0.672748
0.687426 0.687426 0.687426
0.701999 0.701999 0.701999
0.716458 0.716458 0.716458
0.730796 0.730796 0.730796
0.745003 0.745003 0.745003
0.759071 0.759071 0.759071
0.772991 0.772991 0.772991
0.786756 0.786756 0.786756
0.800357 0.800357 0.800357
0.813785 0.813785 0.813785
0.827032 0.827032 0.827032
0.648532 0.648532 0.648532
0.663363 0.663363 0.663363
0.678104 0.678104 0.678104
0.692744 0.692744 0.692744
0.707277 0.707277 0.707277
0.721693 0.721693 0.721693
0.735984 0.735984 0.735984
0.750141 0.750141 0.750141
0.764156 0.764156 0.764156
0.778021 0.778021 0.778021
0.791727 0.791727 0.791727
0.805266 0.805266 0.805266
0.818629 0.818629 0.818629
0.831808 0.831808 0.831808
0.844795 0.844795 0.844795
0.857580 0.857580 0.857580
0.870156 0.870156 0.870156
0.698048 0.698048 0.698048
0.712539 0.712539 0.712539
0.726910 0.726910 0.726910
0.741154 0.741154 0.741154
0.755260 0.755260 0.755260
0.769222 0.769222 0.769222
0.783030 0.783030 0.783030
0.796676 0.796676 0.796676
0.810152 0.810152 0.810152
0.823449 0.823449 0.823449
0.836559 0.836559 0.836559
0.849473 0.849473 0.849473
0.862183 0.862183 0.862183
0.874680 0.874680 0.874680
0.886957 0.886957 0.886957
0.899004 0.899004 0.899004
0.910813 0.910813 0.910813
0.746306 0.746306 0.746306
0.760360 0.760360 0.760360
0.774267 0.774267 0.774267
0.788017 0.788017 0.788017
0.801602 0.801602 0.801602
0.815014 0.815014 0.815014
0.828244 0.828244 0.828244
0.841284 0.841284 0.841284
0.854124 0.854124 0.854124
0.866758 0.866758 0.866758
0.879176 0.879176 0.879176
0.891370 0.891370 0.891370
0.903331 0.903331 0.903331
0.915051 0.915051 0.915051
0.926522 0.926522 0.926522
0.937735 0.937735 0.937735
0.948681 0.948681 0.948681
0.006390 0.006390 0.006390
0.016060 0.016060 0.016060
0.026034 0.026034 0.026034
0.036302 0.036302 0.036302
0.046857 0.046857 0.046857
0.057691 0.057691 0.057691
0.068794 0.068794 0.068794
0.080159 0.080159 0.080159
0.091777 0.091777 0.091777
0.103639 0.103639 0.103639
0.115738 0.115738 0.115738
0.128064 0.128064 0.128064
0.140609 0.140609 0.140609
0.153365 0.153365 0.153365
0.166323 0.166323 0.166323
0.179475 0.179475 0.179475
0.192812 0.192812 0.192812
0.040112 0.040112 0.040112
0.050770 0.050770 0.050770
0.061703 0.061703 0.061703
0.072902 0.072902 0.072902
0.084360 0.084360 0.084360
0.096068 0.096068 0.096068
0.108017 0.108017 0.108017
0.120199 0.120199 0.120199
0.132606 0.132606 0.132606
0.145229 0.145229 0.145229
0.158059 0.158059 0.158059
0.171089 0.171089 0.171089
0.184309 0.184309 0.184309
0.197712 0.197712 0.197712
0.211289 0.211289 0.211289
0.225031 0.225031 0.225031
0.238930 0.238930 0.238930
0.077044 0.077044 0.077044
0.088594 0.088594 0.088594
0.100391 0.100391 0.100391
0.112426 0.112426 0.112426
0.124691 0.124691 0.124691
0.137177 0.137177 0.137177
0.149876 0.149876 0.149876
0.162780 0.162780 0.162780
0.175880 0.175880 0.175880
0.189168 0.189168 0.189168
0.202635 0.202635 0.202635
0.216273 0.216273 0.216273
0.230073 0.230073 0.230073
0.244027 0.244027 0.244027
0.258126 0.258126 0.258126
0.272363 0.272363 0.272363
0.286728 0.286728 0.286728
0.116865 0.116865 0.116865
0.129211 0.129211 0.129211
0.141776 0.141776 0.141776
0.154551 0.154551 0.154551
0.167527 0.167527 0.167527
0.180697 0.180697 0.180697
0.194051 0.194051 0.194051
0.207581 0.207581 0.207581
0.221279 0.221279 0.221279
0.235136 0.235136 0.235136
0.249144 0.249144 0.249144
0.263294 0.263294 0.263294
0.277578 0.277578 0.277578
0.291988 0.291988 0.291988
0.306515 0.306515 0.306515
0.321150 0.321150 0.321150
0.335886 0.335886 0.335886
0.159252 0.159252 0.159252
0.172300 0.172300 0.172300
0.185537 0.185537 0.185537
0.198956 0.198956 0.198956
0.212549 0.212549 0.212549
0.226305 0.226305 0.226305
0.240218 0.240218 0.240218
0.254279 0.254279 0.254279
0.268479 0.268479 0.268479
0.282810 0.282810 0.282810
0.297264 0.297264 0.297264
0.311831 0.311831 0.311831
0.326504 0.326504 0.326504
0.341274 0.341274 0.341274
0.356132 0.356132 0.356132
0.371071 0.371071 0.371071
0.386081 0.386081 0.386081
0.203885 0.203885 0.203885
0.217538 0.217538 0.217538
0.231353 0.231353 0.231353
0.245321 0.245321 0.245321
0.259433 0.259433 0.259433
0.273682 0.273682 0.273682
0.288058 0.288058 0.288058
0.302554 0.302554 0.302554
0.317161 0.317161 0.317161
0.331870 0.331870 0.331870
0.346673 0.346673 0.346673
0.361562 0.361562 0.361562
0.376528 0.376528 0.376528
0.391562 0.391562 0.391562
0.406657 0.406657 0.406657
0.421803 0.421803 0.421803
0.436993 0.436993 0.436993
0.250442 0.250442 0.250442
0.264605 0.264605 0.264605
0.278902 0.278902 0.278902
0.293322 0.293322 0.293322
0.307860 0.307860 0.307860
0.322505 0.322505 0.322505
0.337249 0.337249 0.337249
0.352084 0.352084 0.352084
0.367002 0.367002 0.367002
0.381994 0.381994 0.381994
0.397051 0.397051 0.397051
0.412165 0.412165 0.412165
0.427329 0.427329 0.427329
0.442532 0.442532 0.442532
0.457767 0.457767 0.457767
0.473026 0.473026 0.473026
0.488299 0.488299 0.488299
0.298602 0.298602 0.298602
0.313179 0.313179 0.313179
0.327861 0.327861 0.327861
0.342640 0.342640 0.342640
0.357506 0.357506 0.357506
0.372452 0.372452 0.372452
0.387468 0.387468 0.387468
0.402547 0.402547 0.402547
0.417681 0.417681 0.417681
0.432859 0.432859 0.432859
0.448075 0.448075 0.448075
0.463320 0.463320 0.463320
0.478585 0.478585 0.478585
0.493862 0.493862 0.493862
0.509142 0.509142 0.509142
0.524417 0.524417 0.524417
0.539679 0.539679 0.539679
0.348042 0.348042 0.348042
0.362938 0.362938 0.362938
0.377911 0.377911 0.377911
0.392951 0.392951 0.392951
0.408051 0.408051 0.408051
0.423202 0.423202 0.423202
0.438395 0.438395 0.438395
0.453623 0.453623 0.453623
0.468876 0.468876 0.468876
0.484146 0.484146 0.484146
0.499425 0.499425 0.499425
0.514704 0.514704 0.514704
0.529976 0.529976 0.529976
0.545230 0.545230 0.545230
0.560460 0.560460 0.560460
0.575656 0.575656 0.575656
0.590810 0.590810 0.590810
0.398442 0.398442 0.398442
0.413561 0.413561 0.413561
0.428729 0.428729 0.428729
0.443935 0.443935 0.443935
0.459173 0.459173 0.459173
0.474433 0.474433 0.474433
0.489708 0.489708 0.489708
0.504988 0.504988 0.504988
0.520265 0.520265 0.520265
0.535532 0.535532 0.535532
0.550778 0.550778 0.550778
0.565997 0.565997 0.565997
0.581179 0.581179 0.581179
0.596315 0.596315 0.596315
0.611399 0.611399 0.611399
0.626421 0.626421 0.626421
0.641372 0.641372 0.641372
0.449480 0.449480 0.449480
0.464727 0.464727 0.464727
0.479993 0.479993 0.479993
0.495271 0.495271 0.495271
0.510551 0.510551 0.510551
0.525825 0.525825 0.525825
0.541085 0.541085 0.541085
0.556322 0.556322 0.556322
0.571528 0.571528 0.571528
0.586695 0.586695 0.586695
0.601813 0.601813 0.601813
0.616875 0.616875 0.616875
0.631872 0.631872 0.631872
0.646796 0.646796 0.646796
0.661638 0.661638 0.661638
0.676389 0.676389 0.676389
0.691042 0.691042 0.691042
0.500834 0.500834 0.500834
0.516113 0.516113 0.516113
0.531383 0.531383 0.531383
0.546636 0.546636 0.546636
0.561862 0.561862 0.561862
0.577055 0.577055 0.577055
0.592205 0.592205 0.592205
0.607304 0.607304 0.607304
0.622343 0.622343 0.622343
0.637314 0.637314 0.637314
0.652209 0.652209 0.652209
0.667019 0.667019 0.667019
0.681736 0.681736 0.681736
0.696350 0.696350 0.696350
0.710855 0.710855 0.710855
0.725240 0.725240 0.725240
0.739499 0.739499 0.739499
0.552183 0.552183 0.552183
0.567398 0.567398 0.567398
0.582576 0.582576 0.582576
0.597708 0.597708 0.597708
0.612787 0.612787 0.612787
0.627802 0.627802 0.627802
0.642746 0.642746 0.642746
0.657611 0.657611 0.657611
0.672388 0.672388 0.672388
0.687068 0.687068 0.687068
0.701644 0.701644 0.701644
0.716106 0.716106 0.716106
0.730447 0.730447 0.730447
0.744657 0.744657 0.744657
0.758728 0.758728 0.758728
0.772653 0.772653 0.772653
0.786422 0.786422 0.786422
0.603205 0.603205 0.603205
0.618261 0.618261 0.618261
0.633251 0.633251 0.633251
0.648168 0.648168 0.648168
0.663002 0.663002 0.663002
0.677744 0.677744 0.677744
0.692387 0.692387 0.692387
0.706923 0.706923 0.706923
0.721342 0.721342 0.721342
0.735636 0.735636 0.735636
0.749796 0.749796 0.749796
0.763815 0.763815 0.763815
0.777684 0.777684 0.777684
0.791394 0.791394 0.791394
0.804937 0.804937 0.804937
0.818305 0.818305 0.818305
0.831488 0.831488 0.831488
0.653578 0.653578 0.653578
0.668380 0.668380 0.668380
0.683087 0.683087 0.683087
0.697692 0.697692 0.697692
0.712186 0.712186 0.712186
0.726560 0.726560 0.726560
0.740807 0.740807 0.740807
0.754917 0.754917 0.754917
0.768882 0.768882 0.768882
0.782694 0.782694 0.782694
0.796344 0.796344 0.796344
0.809825 0.809825 0.809825
0.823126 0.823126 0.823126
0.836241 0.836241 0.836241
0.849160 0.849160 0.849160
0.861875 0.861875 0.861875
0.874377 0.874377 0.874377
0.702982 0.702982 0.702982
0.717434 0.717434 0.717434
0.731762 0.731762 0.731762
0.745960 0.745960 0.745960
0.760018 0.760018 0.760018
0.773929 0.773929 0.773929
0.787683 0.787683 0.787683
0.801272 0.801272 0.801272
0.814688 0.814688 0.814688
0.827923 0.827923 0.827923
0.840967 0.840967 0.840967
0.853813 0.853813 0.853813
0.866451 0.866451 0.866451
0.878875 0.878875 0.878875
0.891074 0.891074 0.891074
0.903041 0.903041 0.903041
0.914767 0.914767 0.914767
0.751095 0.751095 0.751095
0.765100 0.765100 0.765100
0.778955 0.778955 0.778955
0.792650 0.792650 0.792650
0.806177 0.806177 0.806177
0.819528 0.819528 0.819528
0.832694 0.832694 0.832694
0.845667 0.845667 0.845667
0.858438 0.858438 0.858438
0.871000 0.871000 0.871000
0.883342 0.883342 0.883342
0.895458 0.895458 0.895458
0.907339 0.907339 0.907339
0.918975 0.918975 0.918975
0.930359 0.930359 0.930359
0.941483 0.941483 0.941483
0.952337 0.952337 0.952337
0.009640 0.009640 0.009640
0.019414 0.019414 0.019414
0.029488 0.029488 0.029488
0.039855 0.039855 0.039855
0.050506 0.050506 0.050506
0.061432 0.061432 0.061432
0.072625 0.072625 0.072625
0.084077 0.084077 0.084077
0.095779 0.095779 0.095779
0.107722 0.107722 0.107722
0.119899 0.119899 0.119899
0.132300 0.132300 0.132300
0.144918 0.144918 0.144918
0.157743 0.157743 0.157743
0.170768 0.170768 0.170768
0.183984 0.183984 0.183984
0.197382 0.197382 0.197382
0.043700 0.043700 0.043700
0.054452 0.054452 0.054452
0.065477 0.065477 0.065477
