app/src/main/assets/luts/punch.cube
TITLE "Punch"
LUT_3D_SIZE 17
0.000000 0.000000 0.000000
0.051262 0.000000 0.000000
0.113943 0.000000 0.000000
0.186036 0.000000 0.000000
0.265531 0.000000 0.000000
0.350418 0.000000 0.000000
0.438690 0.000000 0.000000
0.528336 0.000000 0.000000
0.617347 0.000000 0.000000
0.703715 0.000000 0.000000
0.785430 0.000000 0.000000
0.860484 0.000000 0.000000
0.926867 0.000000 0.000000
0.982570 0.000000 0.000000
1.000000 0.000000 0.000000
1.000000 0.000000 0.000000
1.000000 0.000000 0.000000
0.000000 0.045309 0.000000
0.042829 0.042829 0.000000
0.103932 0.040373 0.000000
0.174747 0.037939 0.000000
0.253263 0.035529 0.000000
0.337473 0.033143 0.000000
0.425366 0.030781 0.000000
0.514935 0.028443 0.000000
0.604169 0.026129 0.000000
0.691059 0.023839 0.000000
0.773597 0.021573 0.000000
0.849774 0.019333 0.000000
0.917579 0.017117 0.000000
0.975005 0.014926 0.000000
1.000000 0.012761 0.000000
1.000000 0.010621 0.000000
1.000000 0.008506 0.000000
0.000000 0.099934 0.000000
0.034658 0.097026 0.000000
0.094138 0.094138 0.000000
0.163629 0.091269 0.000000
0.241123 0.088421 0.000000
0.324610 0.085592 0.000000
0.412081 0.082784 0.000000
0.501526 0.079996 0.000000
0.590938 0.077228 0.000000
0.678306 0.074482 0.000000
0.761622 0.071756 0.000000
0.838876 0.069052 0.000000
0.908060 0.066369 0.000000
0.967165 0.063707 0.000000
1.000000 0.061067 0.000000
1.000000 0.058449 0.000000
1.000000 0.055853 0.000000
0.000000 0.162437 0.000000
0.026755 0.159172 0.000000
0.084567 0.155923 0.000000
0.152691 0.152691 0.000000
0.229116 0.149474 0.000000
0.311835 0.146275 0.000000
0.398839 0.143092 0.000000
0.488117 0.139926 0.000000
0.577661 0.136777 0.000000
0.665462 0.133645 0.000000
0.749511 0.130531 0.000000
0.827799 0.127434 0.000000
0.898316 0.124355 0.000000
0.959054 0.121294 0.000000
1.000000 0.118251 0.000000
1.000000 0.115227 0.000000
1.000000 0.112221 0.000000
0.000000 0.231376 0.000000
0.019127 0.227825 0.000000
0.075227 0.224288 0.000000
0.141937 0.220763 0.000000
0.217250 0.217250 0.000000
0.299157 0.213751 0.000000
0.385648 0.210265 0.000000
0.474714 0.206792 0.000000
0.564346 0.203333 0.000000
0.652535 0.199887 0.000000
0.737272 0.196456 0.000000
0.816548 0.193038 0.000000
0.888354 0.189635 0.000000
0.950681 0.186246 0.000000
1.000000 0.182872 0.000000
1.000000 0.179512 0.000000
1.000000 0.176168 0.000000
0.000000 0.305310 0.000000
0.011781 0.301546 0.000000
0.066123 0.297791 0.000000
0.131376 0.294045 0.000000
0.205531 0.290308 0.000000
0.286580 0.286580 0.000000
0.372514 0.282863 0.000000
0.461323 0.279155 0.000000
0.550998 0.275457 0.000000
0.639531 0.271769 0.000000
0.724911 0.268092 0.000000
0.805131 0.264425 0.000000
0.878180 0.260768 0.000000
0.942050 0.257123 0.000000
0.994732 0.253489 0.000000
1.000000 0.249866 0.000000
1.000000 0.246254 0.000000
0.000000 0.382800 0.000000
0.004724 0.378893 0.000000
0.057262 0.374992 0.000000
0.121013 0.371096 0.000000
0.193966 0.367207 0.000000
0.274113 0.363323 0.000000
0.359445 0.359445 0.000000
0.447952 0.355573 0.000000
0.537625 0.351708 0.000000
0.626456 0.347849 0.000000
0.712435 0.343997 0.000000
0.793553 0.340153 0.000000
0.867802 0.336315 0.000000
0.933171 0.332485 0.000000
0.987652 0.328662 0.000000
1.000000 0.324846 0.000000
1.000000 0.321039 0.000000
0.000000 0.462405 0.000000
0.000000 0.458427 0.000000
0.048652 0.454451 0.000000
0.110855 0.450478 0.000000
0.182561 0.446506 0.000000
0.261761 0.442537 0.000000
0.346446 0.438570 0.000000
0.434606 0.434606 0.000000
0.524233 0.430645 0.000000
0.613318 0.426688 0.000000
0.699851 0.422733 0.000000
0.781823 0.418782 0.000000
0.857225 0.414834 0.000000
0.924048 0.410890 0.000000
0.980283 0.406950 0.000000
1.000000 0.403014 0.000000
1.000000 0.399083 0.000000
0.000000 0.542684 0.000000
0.000000 0.538707 0.000000
0.040299 0.534728 0.000000
0.100910 0.530748 0.000000
0.171324 0.526766 0.000000
0.249532 0.522783 0.000000
0.333525 0.518799 0.000000
0.421294 0.514815 0.000000
0.510829 0.510829 0.000000
0.600122 0.506844 0.000000
0.687164 0.502857 0.000000
0.769945 0.498871 0.000000
0.846456 0.494885 0.000000
0.914689 0.490899 0.000000
0.972634 0.486914 0.000000
1.000000 0.482929 0.000000
1.000000 0.478944 0.000000
0.000000 0.622197 0.000000
0.000000 0.618292 0.000000
0.032209 0.614382 0.000000
0.091183 0.610466 0.000000
0.160261 0.606546 0.000000
0.237432 0.602621 0.000000
0.320688 0.598691 0.000000
0.408021 0.594757 0.000000
0.497420 0.590819 0.000000
0.586877 0.586877 0.000000
0.674383 0.582931 0.000000
0.757928 0.578981 0.000000
0.835503 0.575028 0.000000
0.905100 0.571071 0.000000
0.964710 0.567112 0.000000
1.000000 0.563149 0.000000
1.000000 0.559184 0.000000
0.000000 0.699504 0.000000
0.000000 0.695743 0.000000
0.024390 0.691972 0.000000
0.081682 0.688193 0.000000
0.149378 0.684405 0.000000
0.225468 0.680610 0.000000
0.307943 0.676806 0.000000
0.394794 0.672994 0.000000
0.484012 0.669174 0.000000
0.573588 0.665347 0.000000
0.661513 0.661513 0.000000
0.745777 0.657671 0.000000
0.824372 0.653822 0.000000
0.895289 0.649966 0.000000
0.956518 0.646104 0.000000
1.000000 0.642235 0.000000
1.000000 0.638360 0.000000
0.000000 0.773164 0.000000
0.000000 0.769618 0.000000
0.016848 0.766058 0.000000
0.072413 0.762487 0.000000
0.138682 0.758904 0.000000
0.213646 0.755309 0.000000
0.295295 0.751702 0.000000
0.381620 0.748084 0.000000
0.470612 0.744454 0.000000
0.560262 0.740814 0.000000
0.648561 0.737162 0.000000
0.733500 0.733500 0.000000
0.813070 0.729827 0.000000
0.885261 0.726144 0.000000
0.948065 0.722450 0.000000
0.999472 0.718747 0.000000
1.000000 0.715033 0.000000
0.000000 0.841737 0.000000
0.000000 0.838477 0.000000
0.009589 0.835201 0.000000
0.063383 0.831909 0.000000
0.128181 0.828601 0.000000
0.201973 0.825278 0.000000
0.282751 0.821940 0.000000
0.368505 0.818587 0.000000
0.457226 0.815219 0.000000
0.546906 0.811836 0.000000
0.635534 0.808439 0.000000
0.721103 0.805028 0.000000
0.801602 0.801602 0.000000
0.875024 0.798163 0.000000
0.939358 0.794710 0.000000
0.992595 0.791243 0.000000
1.000000 0.787762 0.000000
0.000000 0.903782 0.000000
0.000000 0.900880 0.000000
0.002621 0.897958 0.000000
0.054599 0.895017 0.000000
0.117880 0.892056 0.000000
0.190457 0.889077 0.000000
0.270318 0.886079 0.000000
0.355457 0.883063 0.000000
0.443862 0.880028 0.000000
0.533526 0.876975 0.000000
0.622440 0.873904 0.000000
0.708593 0.870814 0.000000
0.789977 0.867708 0.000000
0.864584 0.864584 0.000000
0.930403 0.861442 0.000000
0.985426 0.858283 0.000000
1.000000 0.855108 0.000000
0.000000 0.957860 0.000000
0.000000 0.955386 0.000000
0.000000 0.952890 0.000000
0.046067 0.950371 0.000000
0.107787 0.947830 0.000000
0.179102 0.945265 0.000000
0.258003 0.942679 0.000000
0.342481 0.940071 0.000000
0.430526 0.937440 0.000000
0.520130 0.934788 0.000000
0.609283 0.932114 0.000000
0.695976 0.929419 0.000000
0.778201 0.926703 0.000000
0.853947 0.923965 0.000000
0.921207 0.921207 0.000000
0.977970 0.918428 0.000000
1.000000 0.915628 0.000000
0.000000 1.000000 0.000000
0.000000 1.000000 0.000000
0.000000 0.998557 0.000000
0.037794 0.996532 0.000000
0.097908 0.994480 0.000000
0.167918 0.992403 0.000000
0.245813 0.990299 0.000000
0.329585 0.988170 0.000000
0.417225 0.986016 0.000000
0.506724 0.983836 0.000000
0.596072 0.981631 0.000000
0.683260 0.979401 0.000000
0.766280 0.977147 0.000000
0.843122 0.974868 0.000000
0.911777 0.972564 0.000000
0.970236 0.970236 0.000000
1.000000 0.967884 0.000000
0.000000 1.000000 0.000000
0.000000 1.000000 0.000000
0.000000 1.000000 0.000000
0.029786 1.000000 0.000000
0.088250 1.000000 0.000000
0.156909 1.000000 0.000000
0.233754 1.000000 0.000000
0.316776 1.000000 0.000000
0.403965 1.000000 0.000000
0.493314 1.000000 0.000000
0.582812 1.000000 0.000000
0.670451 1.000000 0.000000
0.754221 1.000000 0.000000
0.832113 1.000000 0.000000
0.902119 1.000000 0.000000
0.962229 1.000000 0.000000
1.000000 1.000000 0.000000
0.000000 0.000000 0.052947
0.050399 0.000000 0.050399
0.112923 0.000000 0.047873
0.184889 0.000000 0.045370
0.264287 0.000000 0.042889
0.349108 0.000000 0.040432
0.437343 0.000000 0.037998
0.526983 0.000000 0.035588
0.616019 0.000000 0.033201
0.702442 0.000000 0.030839
0.784243 0.000000 0.028500
0.859412 0.000000 0.026185
0.925940 0.000000 0.023894
0.981819 0.000000 0.021629
1.000000 0.000000 0.019387
1.000000 0.000000 0.017171
1.000000 0.000000 0.014980
0.000000 0.044464 0.044464
0.041992 0.041992 0.041992
0.102934 0.039544 0.039544
0.173617 0.037118 0.037118
0.252032 0.034716 0.034716
0.336171 0.032338 0.032338
0.424023 0.029984 0.029984
0.513581 0.027654 0.027654
0.602835 0.025348 0.025348
0.689776 0.023067 0.023067
0.772395 0.020810 0.020810
0.848682 0.018578 0.018578
0.916629 0.016370 0.016370
0.974226 0.014188 0.014188
1.000000 0.012031 0.012031
1.000000 0.009900 0.009900
1.000000 0.007794 0.007794
0.000000 0.098945 0.036241
0.033848 0.096043 0.033848
0.093162 0.093162 0.031479
0.162517 0.090300 0.029133
0.239905 0.087458 0.026812
0.323316 0.084636 0.024515
0.410742 0.081835 0.022242
0.500172 0.079054 0.019994
0.589599 0.076293 0.017771
0.677013 0.073554 0.015573
0.760405 0.070836 0.013400
0.837766 0.068138 0.011252
0.907087 0.065463 0.009130
0.966358 0.062808 0.007034
1.000000 0.060176 0.004963
1.000000 0.057565 0.002919
1.000000 0.054977 0.000901
0.000000 0.161326 0.028285
0.025973 0.158067 0.025973
0.083614 0.154824 0.023684
0.151597 0.151597 0.021421
0.227912 0.148386 0.019182
0.310551 0.145192 0.016968
0.397505 0.142015 0.014779
0.486764 0.138854 0.012615
0.576319 0.135711 0.010477
0.664161 0.132585 0.008364
0.748282 0.129477 0.006277
0.826671 0.126386 0.004216
0.897320 0.123313 0.002181
0.958221 0.120259 0.000173
1.000000 0.117222 0.000000
1.000000 0.114204 0.000000
1.000000 0.111204 0.000000
0.000000 0.230169 0.020603
0.018373 0.226623 0.018373
0.074297 0.223089 0.016168
0.140862 0.219568 0.013988
0.216060 0.216060 0.011834
0.297882 0.212566 0.009705
0.384319 0.209084 0.007601
0.473361 0.205616 0.005524
0.563000 0.202161 0.003472
0.651226 0.198721 0.001447
0.736030 0.195294 0.000000
0.815403 0.191881 0.000000
0.887337 0.188483 0.000000
0.949821 0.185099 0.000000
1.000000 0.181729 0.000000
1.000000 0.178375 0.000000
1.000000 0.175035 0.000000
0.000000 0.304031 0.013201
0.011056 0.300270 0.011056
0.065217 0.296517 0.008936
0.130320 0.292775 0.006842
0.204357 0.289041 0.004774
0.285317 0.285317 0.002732
0.371192 0.281602 0.000716
0.459972 0.277898 0.000000
0.549649 0.274203 0.000000
0.638214 0.270519 0.000000
0.723657 0.266845 0.000000
0.803969 0.263182 0.000000
0.877142 0.259529 0.000000
0.941165 0.255888 0.000000
0.994031 0.252257 0.000000
1.000000 0.248638 0.000000
1.000000 0.245030 0.000000
0.000000 0.381473 0.006086
0.004027 0.377568 0.004027
0.056382 0.373669 0.001995
0.119978 0.369775 0.000000
0.192807 0.365887 0.000000
0.272861 0.362005 0.000000
0.358129 0.358129 0.000000
0.446603 0.354260 0.000000
0.536274 0.350397 0.000000
0.625133 0.346540 0.000000
0.711170 0.342691 0.000000
0.792376 0.338848 0.000000
0.866743 0.335013 0.000000
0.932261 0.331185 0.000000
0.986921 0.327365 0.000000
1.000000 0.323553 0.000000
1.000000 0.319748 0.000000
0.000000 0.461054 0.000000
0.000000 0.457077 0.000000
0.047797 0.453102 0.000000
0.109842 0.449129 0.000000
0.181419 0.445158 0.000000
0.260521 0.441190 0.000000
0.345138 0.437224 0.000000
0.433261 0.433261 0.000000
0.522881 0.429301 0.000000
0.611988 0.425344 0.000000
0.698574 0.421391 0.000000
0.780630 0.417441 0.000000
0.856146 0.413494 0.000000
0.923114 0.409552 0.000000
0.979524 0.405613 0.000000
1.000000 0.401679 0.000000
1.000000 0.397749 0.000000
0.000000 0.541333 0.000000
0.000000 0.537356 0.000000
0.039470 0.533377 0.000000
0.099918 0.529396 0.000000
0.170199 0.525414 0.000000
0.248305 0.521430 0.000000
0.332225 0.517446 0.000000
0.419952 0.513461 0.000000
0.509476 0.509476 0.000000
0.598788 0.505490 0.000000
0.685878 0.501504 0.000000
0.768738 0.497518 0.000000
0.845359 0.493531 0.000000
0.913731 0.489546 0.000000
0.971846 0.485560 0.000000
1.000000 0.481575 0.000000
1.000000 0.477591 0.000000
0.000000 0.620872 0.000000
0.000000 0.616965 0.000000
0.031408 0.613053 0.000000
0.090214 0.609136 0.000000
0.159154 0.605214 0.000000
0.236218 0.601287 0.000000
0.319398 0.597356 0.000000
0.406683 0.593420 0.000000
0.496066 0.589481 0.000000
0.585537 0.585537 0.000000
0.673087 0.581590 0.000000
0.756707 0.577639 0.000000
0.834388 0.573685 0.000000
0.904120 0.569727 0.000000
0.963895 0.565766 0.000000
1.000000 0.561803 0.000000
1.000000 0.557836 0.000000
0.000000 0.698228 0.000000
0.000000 0.694463 0.000000
0.023616 0.690690 0.000000
0.080736 0.686908 0.000000
0.148290 0.683117 0.000000
0.224268 0.679319 0.000000
0.306661 0.675512 0.000000
0.393461 0.671698 0.000000
0.482659 0.667875 0.000000
0.572244 0.664046 0.000000
0.660209 0.660209 0.000000
0.744543 0.656365 0.000000
0.823239 0.652513 0.000000
0.894286 0.648655 0.000000
0.955676 0.644791 0.000000
1.000000 0.640920 0.000000
1.000000 0.637042 0.000000
0.000000 0.771961 0.000000
0.000000 0.768410 0.000000
0.016102 0.764847 0.000000
0.071491 0.761272 0.000000
0.137613 0.757684 0.000000
0.212461 0.754085 0.000000
0.294023 0.750475 0.000000
0.380293 0.746853 0.000000
0.469260 0.743219 0.000000
0.558915 0.739575 0.000000
0.647249 0.735920 0.000000
0.732254 0.732254 0.000000
0.811919 0.728577 0.000000
0.884237 0.724891 0.000000
0.947197 0.721194 0.000000
0.998791 0.717487 0.000000
1.000000 0.713770 0.000000
0.000000 0.840632 0.000000
0.000000 0.837366 0.000000
0.008873 0.834084 0.000000
0.062485 0.830787 0.000000
0.127132 0.827474 0.000000
0.200803 0.824146 0.000000
0.281491 0.820803 0.000000
0.367185 0.817445 0.000000
0.455876 0.814072 0.000000
0.545556 0.810684 0.000000
0.634215 0.807282 0.000000
0.719845 0.803866 0.000000
0.800436 0.800436 0.000000
0.873979 0.796992 0.000000
0.938465 0.793534 0.000000
0.991885 0.790062 0.000000
1.000000 0.786578 0.000000
0.000000 0.902799 0.000000
0.000000 0.899890 0.000000
0.001934 0.896961 0.000000
0.053726 0.894014 0.000000
0.116852 0.891047 0.000000
0.189303 0.888061 0.000000
0.269070 0.885057 0.000000
0.354143 0.882034 0.000000
0.442515 0.878993 0.000000
0.532175 0.875934 0.000000
0.621114 0.872856 0.000000
0.707324 0.869761 0.000000
0.788795 0.866649 0.000000
0.863519 0.863519 0.000000
0.929485 0.860371 0.000000
0.984686 0.857207 0.000000
1.000000 0.854025 0.000000
0.000000 0.957022 0.000000
0.000000 0.954541 0.000000
0.000000 0.952037 0.000000
0.045220 0.949511 0.000000
0.106780 0.946961 0.000000
0.177965 0.944390 0.000000
0.256767 0.941796 0.000000
0.341175 0.939180 0.000000
0.429182 0.936542 0.000000
0.518777 0.933882 0.000000
0.607952 0.931201 0.000000
0.694697 0.928499 0.000000
0.777004 0.925775 0.000000
0.852863 0.923031 0.000000
0.920266 0.920266 0.000000
0.977202 0.917480 0.000000
1.000000 0.914673 0.000000
0.000000 1.000000 0.000000
0.000000 0.999880 0.000000
0.000000 0.997872 0.000000
0.036973 0.995838 0.000000
0.096923 0.993777 0.000000
0.166798 0.991691 0.000000
0.244590 0.989579 0.000000
0.328288 0.987441 0.000000
0.415885 0.985278 0.000000
0.505370 0.983090 0.000000
0.594735 0.980877 0.000000
0.681971 0.978638 0.000000
0.765069 0.976375 0.000000
0.842019 0.974088 0.000000
0.910812 0.971776 0.000000
0.969440 0.969440 0.000000
1.000000 0.967080 0.000000
0.000000 1.000000 0.000000
0.000000 1.000000 0.000000
0.000000 1.000000 0.000000
0.028993 1.000000 0.000000
0.087287 1.000000 0.000000
0.155807 1.000000 0.000000
0.232544 1.000000 0.000000
0.315488 1.000000 0.000000
0.402629 1.000000 0.000000
0.491960 1.000000 0.000000
0.581471 1.000000 0.000000
0.669153 1.000000 0.000000
0.752996 1.000000 0.000000
0.830992 1.000000 0.000000
0.901132 1.000000 0.000000
0.961406 1.000000 0.000000
1.000000 1.000000 0.000000
0.000000 0.000000 0.117932
0.049538 0.000000 0.114909
0.111905 0.000000 0.111905
0.183743 0.000000 0.108920
0.263044 0.000000 0.105953
0.347798 0.000000 0.103006
0.435997 0.000000 0.100077
0.525631 0.000000 0.097168
0.614691 0.000000 0.094279
0.701168 0.000000 0.091409
0.783053 0.000000 0.088560
0.858337 0.000000 0.085730
0.925011 0.000000 0.082921
0.981065 0.000000 0.080132
1.000000 0.000000 0.077363
1.000000 0.000000 0.074616
1.000000 0.000000 0.071889
0.000000 0.043622 0.107837
0.041158 0.041158 0.104878
0.101937 0.038717 0.101937
0.172488 0.036300 0.099016
0.250802 0.033906 0.096114
0.334869 0.031536 0.093232
0.422681 0.029190 0.090369
0.512228 0.026868 0.087527
0.601501 0.024571 0.084705
0.688492 0.022297 0.081903
0.771191 0.020049 0.079121
0.847588 0.017825 0.076361
0.915676 0.015626 0.073621
0.973444 0.013453 0.070902
1.000000 0.011305 0.068204
1.000000 0.009182 0.065528
1.000000 0.007085 0.062873
0.000000 0.097957 0.097957
0.033041 0.095063 0.095063
0.092188 0.092188 0.092188
0.161406 0.089332 0.089332
0.238688 0.086497 0.086497
0.322023 0.083682 0.083682
0.409403 0.080888 0.080888
0.498819 0.078114 0.078114
0.588261 0.075361 0.075361
0.675720 0.072628 0.072628
0.759188 0.069917 0.069917
0.836654 0.067227 0.067227
0.906111 0.064559 0.064559
0.965549 0.061912 0.061912
1.000000 0.059287 0.059287
1.000000 0.056684 0.056684
1.000000 0.054103 0.054103
0.000000 0.160218 0.088298
0.025193 0.156964 0.085470
0.082663 0.153726 0.082663
0.150504 0.150504 0.079876
0.226709 0.147299 0.077109
0.309268 0.144111 0.074364
0.396171 0.140939 0.071639
0.485410 0.137785 0.068935
0.574976 0.134648 0.066253
0.662859 0.131528 0.063593
0.747050 0.128425 0.060954
0.825541 0.125341 0.058337
0.896322 0.122274 0.055742
0.957384 0.119225 0.053169
1.000000 0.116195 0.050618
1.000000 0.113183 0.048090
1.000000 0.110190 0.045585
0.000000 0.228963 0.078866
0.017621 0.225421 0.076107
0.073369 0.221892 0.073369
0.139789 0.218376 0.070652
0.214872 0.214872 0.067956
0.296609 0.211382 0.065282
0.382991 0.207905 0.062629
0.472009 0.204441 0.059998
0.561653 0.200991 0.057389
0.649916 0.197555 0.054802
0.734786 0.194133 0.052238
0.814256 0.190725 0.049695
0.886317 0.187332 0.047176
0.948959 0.183953 0.044679
1.000000 0.180588 0.042205
1.000000 0.177239 0.039755
1.000000 0.173905 0.037327
0.000000 0.302752 0.069668
0.010333 0.298994 0.066980
0.064314 0.295245 0.064314
0.129267 0.291506 0.061669
0.203184 0.287775 0.059046
0.284054 0.284054 0.056445
0.369870 0.280343 0.053866
0.458622 0.276642 0.051310
0.548300 0.272951 0.048776
0.636896 0.269270 0.046264
0.722401 0.265600 0.043776
0.802806 0.261940 0.041310
0.876101 0.258291 0.038868
0.940278 0.254653 0.036449
0.993326 0.251027 0.034054
1.000000 0.247411 0.031683
1.000000 0.243807 0.029335
0.000000 0.380146 0.060712
0.003334 0.376243 0.058096
0.055503 0.372346 0.055503
0.118945 0.368454 0.052933
0.191650 0.364568 0.050384
0.271610 0.360688 0.047859
0.356814 0.356814 0.045356
0.445255 0.352947 0.042875
0.534923 0.349086 0.040419
0.623808 0.345232 0.037985
0.709903 0.341385 0.035575
0.791197 0.337545 0.033188
0.865682 0.333712 0.030825
0.931348 0.329887 0.028486
0.986187 0.326069 0.026172
1.000000 0.322260 0.023882
1.000000 0.318458 0.021616
0.000000 0.459703 0.052002
0.000000 0.455727 0.049462
0.046945 0.451752 0.046945
0.108830 0.447780 0.044450
0.180279 0.443810 0.041978
0.259282 0.439843 0.039530
0.343831 0.435878 0.037105
0.431916 0.431916 0.034703
0.521528 0.427957 0.032325
0.610658 0.424001 0.029971
0.697297 0.420049 0.027641
0.779436 0.416100 0.025335
0.855066 0.412155 0.023054
0.922177 0.408214 0.020797
0.978761 0.404276 0.018565
1.000000 0.400343 0.016358
1.000000 0.396415 0.014176
0.000000 0.539983 0.043547
0.000000 0.536005 0.041084
0.038644 0.532025 0.038644
0.098928 0.528044 0.036228
0.169076 0.524061 0.033835
0.247079 0.520078 0.031465
0.330926 0.516093 0.029120
0.418611 0.512108 0.026799
0.508122 0.508122 0.024502
0.597452 0.504136 0.022229
0.684591 0.500150 0.019982
0.767530 0.496164 0.017759
0.844260 0.492178 0.015561
0.912771 0.488192 0.013388
0.971056 0.484207 0.011240
1.000000 0.480222 0.009118
1.000000 0.476239 0.007022
0.000000 0.619545 0.035354
0.000000 0.615637 0.032969
0.030609 0.611723 0.030609
0.089247 0.607804 0.028272
0.158049 0.603881 0.025960
0.235005 0.599952 0.023672
0.318108 0.596020 0.021408
0.405346 0.592083 0.019169
0.494713 0.588142 0.016955
0.584197 0.584197 0.014767
0.671791 0.580249 0.012603
0.755485 0.576296 0.010465
0.833270 0.572341 0.008352
0.903137 0.568382 0.006265
0.963077 0.564421 0.004205
1.000000 0.560456 0.002170
1.000000 0.556489 0.000161
0.000000 0.696950 0.027427
0.000000 0.693183 0.025124
0.022845 0.689406 0.022845
0.079792 0.685621 0.020590
0.147203 0.681828 0.018360
0.223069 0.678027 0.016156
0.305381 0.674218 0.013976
0.392129 0.670400 0.011822
0.481306 0.666576 0.009693
0.570900 0.662744 0.007590
0.658904 0.658904 0.005512
0.743308 0.655057 0.003461
0.822104 0.651204 0.001436
0.893281 0.647344 0.000000
0.954832 0.643477 0.000000
1.000000 0.639604 0.000000
1.000000 0.635724 0.000000
0.000000 0.770757 0.019776
0.000000 0.767202 0.017555
0.015359 0.763634 0.015359
0.070571 0.760055 0.013189
0.136546 0.756463 0.011044
0.211277 0.752860 0.008924
0.292753 0.749246 0.006830
0.378967 0.745620 0.004762
0.467908 0.741983 0.002720
0.557568 0.738335 0.000705
0.645937 0.734676 0.000000
0.731006 0.731006 0.000000
0.810767 0.727326 0.000000
0.883211 0.723636 0.000000
0.946327 0.719936 0.000000
0.998108 0.716225 0.000000
1.000000 0.712505 0.000000
0.000000 0.839525 0.012405
0.000000 0.836253 0.010269
0.008159 0.832966 0.008159
0.061590 0.829664 0.006074
0.126085 0.826346 0.004016
0.199635 0.823013 0.001984
0.280232 0.819664 0.000000
0.365865 0.816301 0.000000
0.454526 0.812923 0.000000
0.544206 0.809531 0.000000
0.632896 0.806124 0.000000
0.718586 0.802703 0.000000
0.799268 0.799268 0.000000
0.872932 0.795819 0.000000
0.937569 0.792356 0.000000
0.991171 0.788880 0.000000
1.000000 0.785391 0.000000
0.000000 0.901813 0.005322
0.000000 0.898897 0.003273
0.001250 0.895962 0.001250
0.052856 0.893008 0.000000
0.115826 0.890035 0.000000
0.188151 0.887043 0.000000
0.267822 0.884032 0.000000
0.352831 0.881003 0.000000
0.441167 0.877956 0.000000
0.530823 0.874891 0.000000
0.619788 0.871807 0.000000
0.706054 0.868706 0.000000
0.787612 0.865588 0.000000
0.862452 0.862452 0.000000
0.928565 0.859299 0.000000
0.983943 0.856128 0.000000
1.000000 0.852941 0.000000
0.000000 0.956182 0.000000
0.000000 0.953693 0.000000
0.000000 0.951182 0.000000
0.044375 0.948647 0.000000
0.105775 0.946090 0.000000
0.176830 0.943511 0.000000
0.255532 0.940910 0.000000
0.339871 0.938286 0.000000
0.427838 0.935641 0.000000
0.517424 0.932974 0.000000
0.606620 0.930286 0.000000
0.693417 0.927576 0.000000
0.775805 0.924846 0.000000
0.851777 0.922094 0.000000
0.919322 0.919322 0.000000
0.976431 0.916529 0.000000
1.000000 0.913715 0.000000
0.000000 1.000000 0.000000
0.000000 0.999201 0.000000
0.000000 0.997184 0.000000
0.036155 0.995141 0.000000
0.095940 0.993072 0.000000
0.165680 0.990977 0.000000
0.243367 0.988856 0.000000
0.326992 0.986710 0.000000
0.414544 0.984538 0.000000
0.504016 0.982341 0.000000
0.593398 0.980119 0.000000
0.680681 0.977873 0.000000
0.763856 0.975601 0.000000
0.840914 0.973306 0.000000
0.909845 0.970985 0.000000
0.968641 0.968641 0.000000
1.000000 0.966273 0.000000
0.000000 1.000000 0.000000
0.000000 1.000000 0.000000
0.000000 1.000000 0.000000
0.028202 1.000000 0.000000
0.086327 1.000000 0.000000
0.154708 1.000000 0.000000
0.231335 1.000000 0.000000
0.314200 1.000000 0.000000
0.401294 1.000000 0.000000
0.490607 1.000000 0.000000
0.580130 1.000000 0.000000
0.667854 1.000000 0.000000
0.751770 1.000000 0.000000
0.829869 1.000000 0.000000
0.900142 1.000000 0.000000
0.960580 1.000000 0.000000
1.000000 1.000000 0.000000
0.000000 0.000000 0.192762
0.048681 0.000000 0.189360
0.110889 0.000000 0.185973
0.182599 0.000000 0.182599
0.261803 0.000000 0.179241
0.346490 0.000000 0.175898
0.434651 0.000000 0.172569
0.524278 0.000000 0.169256
0.613362 0.000000 0.165959
0.699893 0.000000 0.162677
0.781862 0.000000 0.159411
0.857261 0.000000 0.156161
0.924079 0.000000 0.152927
0.980308 0.000000 0.149710
1.000000 0.000000 0.146509
1.000000 0.000000 0.143325
1.000000 0.000000 0.140157
0.000000 0.042783 0.181375
0.040327 0.040327 0.178022
0.100943 0.037894 0.174684
