app/src/main/assets/luts/punch.cube
TITLE "Punch"
LUT_3D_SIZE 5
0.000000 0.000000 0.000000
0.265531 0.000000 0.000000
0.617347 0.000000 0.000000
0.926867 0.000000 0.000000
1.000000 0.000000 0.000000
0.000000 0.231376 0.000000
0.217250 0.217250 0.000000
0.564346 0.203333 0.000000
0.888354 0.189635 0.000000
1.000000 0.176168 0.000000
0.000000 0.542684 0.000000
0.171324 0.526766 0.000000
0.510829 0.510829 0.000000
0.846456 0.494885 0.000000
1.000000 0.478944 0.000000
0.000000 0.841737 0.000000
0.128181 0.828601 0.000000
0.457226 0.815219 0.000000
0.801602 0.801602 0.000000
1.000000 0.787762 0.000000
0.000000 1.000000 0.000000
0.088250 1.000000 0.000000
0.403965 1.000000 0.000000
0.754221 1.000000 0.000000
1.000000 1.000000 0.000000
0.000000 0.000000 0.275248
0.260562 0.000000 0.260562
0.612032 0.000000 0.246050
0.923145 0.000000 0.231724
1.000000 0.000000 0.217593
0.000000 0.226556 0.226556
0.212500 0.212500 0.212500
0.558960 0.198656 0.198656
0.884271 0.185035 0.185035
1.000000 0.171648 0.171648
0.000000 0.537281 0.180134
0.166835 0.521355 0.166835
0.505415 0.505415 0.153787
0.842055 0.489471 0.140999
1.000000 0.473534 0.128484
0.000000 0.837304 0.136410
0.123997 0.824083 0.123997
0.451827 0.810621 0.111871
0.796927 0.796927 0.100044
1.000000 0.783014 0.088528
0.000000 1.000000 0.095815
0.084414 1.000000 0.084414
0.398624 1.000000 0.073338
0.749314 1.000000 0.062600
1.000000 1.000000 0.052209
0.000000 0.000000 0.637922
0.255614 0.000000 0.622359
0.606708 0.000000 0.606708
0.919384 0.000000 0.590982
1.000000 0.000000 0.575192
0.000000 0.221759 0.585240
0.207774 0.207774 0.569429
0.553569 0.194005 0.553569
0.880154 0.180462 0.537670
1.000000 0.167158 0.521745
0.000000 0.531875 0.531875
0.162375 0.515943 0.515943
0.500000 0.500000 0.500000
0.837625 0.484057 0.484057
1.000000 0.468125 0.468125
0.000000 0.832842 0.478255
0.119846 0.819538 0.462330
0.446431 0.805995 0.446431
0.792226 0.792226 0.430571
1.000000 0.778241 0.414760
0.000000 1.000000 0.424808
0.080616 1.000000 0.409018
0.393292 1.000000 0.393292
0.744386 1.000000 0.377641
1.000000 1.000000 0.362078
0.000000 0.000000 0.947791
0.250686 0.000000 0.937400
0.601376 0.000000 0.926662
0.915586 0.000000 0.915586
1.000000 0.000000 0.904185
0.000000 0.216986 0.911472
0.203073 0.203073 0.899956
0.548173 0.189379 0.888129
0.876003 0.175917 0.876003
1.000000 0.162696 0.863590
0.000000 0.526466 0.871516
0.157945 0.510529 0.859001
0.494585 0.494585 0.846213
0.833165 0.478645 0.833165
1.000000 0.462719 0.819866
0.000000 0.828352 0.828352
0.115729 0.814965 0.814965
0.441040 0.801344 0.801344
0.787500 0.787500 0.787500
1.000000 0.773444 0.773444
0.000000 1.000000 0.782407
0.076855 1.000000 0.768276
0.387968 1.000000 0.753950
0.739438 1.000000 0.739438
1.000000 1.000000 0.724752
0.000000 0.000000 1.000000
0.245779 0.000000 1.000000
0.596035 0.000000 1.000000
0.911750 0.000000 1.000000
1.000000 0.000000 1.000000
0.000000 0.212238 1.000000
0.198398 0.198398 1.000000
0.542774 0.184781 1.000000
0.871819 0.171399 1.000000
1.000000 0.158263 1.000000
0.000000 0.521056 1.000000
0.153544 0.505115 1.000000
0.489171 0.489171 1.000000
0.828676 0.473234 1.000000
1.000000 0.457316 1.000000
0.000000 0.823832 1.000000
0.111646 0.810365 1.000000
0.435654 0.796667 1.000000
0.782750 0.782750 1.000000
1.000000 0.768624 1.000000
0.000000 1.000000 1.000000
0.073133 1.000000 1.000000
0.382653 1.000000 1.000000
0.734469 1.000000 1.000000
1.000000 1.000000 1.000000
