app/src/main/assets/luts/punch.cube
TITLE "Punch"
LUT_3D_SIZE 9
0.000000 0.000000 0.000000
0.113943 0.000000 0.000000
0.265531 0.000000 0.000000
0.438690 0.000000 0.000000
0.617347 0.000000 0.000000
0.785430 0.000000 0.000000
0.926867 0.000000 0.000000
1.000000 0.000000 0.000000
1.000000 0.000000 0.000000
0.000000 0.099934 0.000000
0.094138 0.094138 0.000000
0.241123 0.088421 0.000000
0.412081 0.082784 0.000000
0.590938 0.077228 0.000000
0.761622 0.071756 0.000000
0.908060 0.066369 0.000000
1.000000 0.061067 0.000000
1.000000 0.055853 0.000000
0.000000 0.231376 0.000000
0.075227 0.224288 0.000000
0.217250 0.217250 0.000000
0.385648 0.210265 0.000000
0.564346 0.203333 0.000000
0.737272 0.196456 0.000000
0.888354 0.189635 0.000000
1.000000 0.182872 0.000000
1.000000 0.176168 0.000000
0.000000 0.382800 0.000000
0.057262 0.374992 0.000000
0.193966 0.367207 0.000000
0.359445 0.359445 0.000000
0.537625 0.351708 0.000000
0.712435 0.343997 0.000000
0.867802 0.336315 0.000000
0.987652 0.328662 0.000000
1.000000 0.321039 0.000000
0.000000 0.542684 0.000000
0.040299 0.534728 0.000000
0.171324 0.526766 0.000000
0.333525 0.518799 0.000000
0.510829 0.510829 0.000000
0.687164 0.502857 0.000000
0.846456 0.494885 0.000000
0.972634 0.486914 0.000000
1.000000 0.478944 0.000000
0.000000 0.699504 0.000000
0.024390 0.691972 0.000000
0.149378 0.684405 0.000000
0.307943 0.676806 0.000000
0.484012 0.669174 0.000000
0.661513 0.661513 0.000000
0.824372 0.653822 0.000000
0.956518 0.646104 0.000000
1.000000 0.638360 0.000000
0.000000 0.841737 0.000000
0.009589 0.835201 0.000000
0.128181 0.828601 0.000000
0.282751 0.821940 0.000000
0.457226 0.815219 0.000000
0.635534 0.808439 0.000000
0.801602 0.801602 0.000000
0.939358 0.794710 0.000000
1.000000 0.787762 0.000000
0.000000 0.957860 0.000000
0.000000 0.952890 0.000000
0.107787 0.947830 0.000000
0.258003 0.942679 0.000000
0.430526 0.937440 0.000000
0.609283 0.932114 0.000000
0.778201 0.926703 0.000000
0.921207 0.921207 0.000000
1.000000 0.915628 0.000000
0.000000 1.000000 0.000000
0.000000 1.000000 0.000000
0.088250 1.000000 0.000000
0.233754 1.000000 0.000000
0.403965 1.000000 0.000000
0.582812 1.000000 0.000000
0.754221 1.000000 0.000000
0.902119 1.000000 0.000000
1.000000 1.000000 0.000000
0.000000 0.000000 0.117932
0.111905 0.000000 0.111905
0.263044 0.000000 0.105953
0.435997 0.000000 0.100077
0.614691 0.000000 0.094279
0.783053 0.000000 0.088560
0.925011 0.000000 0.082921
1.000000 0.000000 0.077363
1.000000 0.000000 0.071889
0.000000 0.097957 0.097957
0.092188 0.092188 0.092188
0.238688 0.086497 0.086497
0.409403 0.080888 0.080888
0.588261 0.075361 0.075361
0.759188 0.069917 0.069917
0.906111 0.064559 0.064559
1.000000 0.059287 0.059287
1.000000 0.054103 0.054103
0.000000 0.228963 0.078866
0.073369 0.221892 0.073369
0.214872 0.214872 0.067956
0.382991 0.207905 0.062629
0.561653 0.200991 0.057389
0.734786 0.194133 0.052238
0.886317 0.187332 0.047176
1.000000 0.180588 0.042205
1.000000 0.173905 0.037327
0.000000 0.380146 0.060712
0.055503 0.372346 0.055503
0.191650 0.364568 0.050384
0.356814 0.356814 0.045356
0.534923 0.349086 0.040419
0.709903 0.341385 0.035575
0.865682 0.333712 0.030825
0.986187 0.326069 0.026172
1.000000 0.318458 0.021616
0.000000 0.539983 0.043547
0.038644 0.532025 0.038644
0.169076 0.524061 0.033835
0.330926 0.516093 0.029120
0.508122 0.508122 0.024502
0.684591 0.500150 0.019982
0.844260 0.492178 0.015561
0.971056 0.484207 0.011240
1.000000 0.476239 0.007022
0.000000 0.696950 0.027427
0.022845 0.689406 0.022845
0.147203 0.681828 0.018360
0.305381 0.674218 0.013976
0.481306 0.666576 0.009693
0.658904 0.658904 0.005512
0.822104 0.651204 0.001436
0.954832 0.643477 0.000000
1.000000 0.635724 0.000000
0.000000 0.839525 0.012405
0.008159 0.832966 0.008159
0.126085 0.826346 0.004016
0.280232 0.819664 0.000000
0.454526 0.812923 0.000000
0.632896 0.806124 0.000000
0.799268 0.799268 0.000000
0.937569 0.792356 0.000000
1.000000 0.785391 0.000000
0.000000 0.956182 0.000000
0.000000 0.951182 0.000000
0.105775 0.946090 0.000000
0.255532 0.940910 0.000000
0.427838 0.935641 0.000000
0.606620 0.930286 0.000000
0.775805 0.924846 0.000000
0.919322 0.919322 0.000000
1.000000 0.913715 0.000000
0.000000 1.000000 0.000000
0.000000 1.000000 0.000000
0.086327 1.000000 0.000000
0.231335 1.000000 0.000000
0.401294 1.000000 0.000000
0.580130 1.000000 0.000000
0.751770 1.000000 0.000000
0.900142 1.000000 0.000000
1.000000 1.000000 0.000000
0.000000 0.000000 0.275248
0.109875 0.000000 0.267884
0.260562 0.000000 0.260562
0.433306 0.000000 0.253284
0.612032 0.000000 0.246050
0.780670 0.000000 0.238863
0.923145 0.000000 0.231724
1.000000 0.000000 0.224633
1.000000 0.000000 0.217593
0.000000 0.095989 0.250645
0.090246 0.090246 0.243428
0.236258 0.084583 0.236258
0.406728 0.079001 0.229136
0.585582 0.073503 0.222064
0.756748 0.068088 0.215043
0.904152 0.062759 0.208075
1.000000 0.057516 0.201160
1.000000 0.052363 0.194300
0.000000 0.226556 0.226556
0.071521 0.219502 0.219502
0.212500 0.212500 0.212500
0.380337 0.205551 0.205551
0.558960 0.198656 0.198656
0.732295 0.191817 0.191817
0.884271 0.185035 0.185035
0.998814 0.178312 0.178312
1.000000 0.171648 0.171648
0.000000 0.377494 0.203034
0.053755 0.369702 0.196160
0.189341 0.361932 0.189341
0.354187 0.354187 0.182580
0.532219 0.346468 0.175879
0.707366 0.338776 0.169238
0.863554 0.331113 0.162659
0.984711 0.323481 0.156143
1.000000 0.315880 0.149692
0.000000 0.537281 0.180134
0.037000 0.529321 0.173454
0.166835 0.521355 0.166835
0.328331 0.513386 0.160279
0.505415 0.505415 0.153787
0.682014 0.497443 0.147359
0.842055 0.489471 0.140999
0.969466 0.481500 0.134707
1.000000 0.473534 0.128484
0.000000 0.694392 0.157908
0.021311 0.686836 0.151439
0.145036 0.679247 0.145036
0.302823 0.671626 0.138700
0.478600 0.663974 0.132433
0.656292 0.656292 0.126236
0.819828 0.648583 0.120110
0.953135 0.640847 0.114057
1.000000 0.633086 0.108078
0.000000 0.837304 0.136410
0.006740 0.830725 0.130169
0.123997 0.824083 0.123997
0.277717 0.817382 0.117897
0.451827 0.810621 0.111871
0.630254 0.803802 0.105920
0.796927 0.796927 0.100044
0.935771 0.789997 0.094246
1.000000 0.783014 0.088528
0.000000 0.954494 0.115695
0.000000 0.949463 0.109696
0.103772 0.944341 0.103772
0.253066 0.939130 0.097924
0.425151 0.933832 0.092155
0.603954 0.928448 0.086465
0.773404 0.922979 0.080856
0.917427 0.917427 0.075330
1.000000 0.911793 0.069887
0.000000 1.000000 0.095815
0.000000 1.000000 0.090074
0.084414 1.000000 0.084414
0.228923 1.000000 0.078835
0.398624 1.000000 0.073338
0.577446 1.000000 0.067926
0.749314 1.000000 0.062600
0.898157 1.000000 0.057360
1.000000 1.000000 0.052209
0.000000 0.000000 0.454421
0.107854 0.000000 0.446476
0.258086 0.000000 0.438541
0.430616 0.000000 0.430616
0.609372 0.000000 0.422703
0.778280 0.000000 0.414804
0.921269 0.000000 0.406920
1.000000 0.000000 0.399053
1.000000 0.000000 0.391204
0.000000 0.094030 0.427734
0.088314 0.088314 0.419826
0.233834 0.082678 0.411932
0.404054 0.077125 0.404054
0.582901 0.071654 0.396193
0.754302 0.066268 0.388351
0.902185 0.060969 0.380528
1.000000 0.055756 0.372727
1.000000 0.050633 0.364948
0.000000 0.224155 0.401190
0.069684 0.217118 0.393336
0.210134 0.210134 0.385500
0.377685 0.203203 0.377685
0.556265 0.196327 0.369892
0.729799 0.189507 0.362122
0.882217 0.182745 0.354376
0.997444 0.176042 0.346656
1.000000 0.169399 0.338964
0.000000 0.374845 0.374845
0.052017 0.367060 0.367060
0.187039 0.359299 0.359299
0.351562 0.351562 0.351562
0.529516 0.343853 0.343853
0.704825 0.336171 0.336171
0.861418 0.328518 0.328518
0.983223 0.320896 0.320896
1.000000 0.313306 0.313306
0.000000 0.534578 0.348752
0.035367 0.526616 0.341053
0.164602 0.518649 0.333381
0.325739 0.510679 0.325739
0.502707 0.502707 0.318129
0.679433 0.494735 0.310551
0.839844 0.486764 0.303007
0.967866 0.478794 0.295499
1.000000 0.470829 0.288027
0.000000 0.691830 0.322965
0.019788 0.684263 0.315366
0.142877 0.676662 0.307801
0.300270 0.669030 0.300270
0.475894 0.661368 0.292775
0.653677 0.653677 0.285317
0.817546 0.645959 0.277898
0.951429 0.638214 0.270519
1.000000 0.630445 0.263182
0.000000 0.835077 0.297537
0.005334 0.828476 0.290055
0.121917 0.821814 0.282611
0.275207 0.815092 0.275207
0.449129 0.808311 0.267843
0.627610 0.801473 0.260521
0.794579 0.794579 0.253243
0.933963 0.787631 0.246010
1.000000 0.780630 0.238823
0.000000 0.952796 0.272521
0.000000 0.947734 0.265172
0.101777 0.942581 0.257866
0.250604 0.937341 0.250604
0.422465 0.932013 0.243388
0.601287 0.926600 0.236218
0.770997 0.921103 0.229096
0.915523 0.915523 0.222025
1.000000 0.909861 0.215004
0.000000 1.000000 0.247972
0.000000 1.000000 0.240772
0.082510 1.000000 0.233620
0.226516 1.000000 0.226516
0.395957 1.000000 0.219463
0.574760 1.000000 0.212461
0.746853 1.000000 0.205512
0.896162 1.000000 0.198617
1.000000 1.000000 0.191778
0.000000 0.000000 0.637922
0.105842 0.000000 0.630152
0.255614 0.000000 0.622359
0.427927 0.000000 0.614544
0.606708 0.000000 0.606708
0.775885 0.000000 0.598854
0.919384 0.000000 0.590982
1.000000 0.000000 0.583094
1.000000 0.000000 0.575192
0.000000 0.092080 0.611693
0.086391 0.086391 0.603851
0.231416 0.080783 0.595990
0.401383 0.075257 0.588112
0.580219 0.069816 0.580219
0.751852 0.064459 0.572311
0.900208 0.059189 0.564391
1.000000 0.054006 0.556459
1.000000 0.048913 0.548517
0.000000 0.221759 0.585240
0.067855 0.214741 0.577342
0.207774 0.207774 0.569429
0.375036 0.200862 0.561504
0.553569 0.194005 0.553569
0.727299 0.187204 0.545623
0.880154 0.180462 0.537670
0.996061 0.173779 0.529710
1.000000 0.167158 0.521745
0.000000 0.372199 0.558616
0.050289 0.364422 0.550677
0.184743 0.356669 0.542729
0.348941 0.348941 0.534773
0.526811 0.341241 0.526811
0.702280 0.333568 0.518844
0.859275 0.325926 0.510874
0.981723 0.318315 0.502902
1.000000 0.310736 0.494930
0.000000 0.531875 0.531875
0.033745 0.523911 0.523911
0.162375 0.515943 0.515943
0.323151 0.507972 0.507972
0.500000 0.500000 0.500000
0.676849 0.492028 0.492028
0.837625 0.484057 0.484057
0.966255 0.476089 0.476089
1.000000 0.468125 0.468125
0.000000 0.689264 0.505070
0.018277 0.681685 0.497098
0.140725 0.674074 0.489126
0.297720 0.666432 0.481156
0.473189 0.658759 0.473189
0.651059 0.651059 0.465227
0.815257 0.643331 0.457271
0.949711 0.635578 0.449323
1.000000 0.627801 0.441384
0.000000 0.832842 0.478255
0.003939 0.826221 0.470290
0.119846 0.819538 0.462330
0.272701 0.812796 0.454377
0.446431 0.805995 0.446431
0.624964 0.799138 0.438496
0.792226 0.792226 0.430571
0.932145 0.785259 0.422658
1.000000 0.778241 0.414760
0.000000 0.951087 0.451483
0.000000 0.945994 0.443541
0.099792 0.940811 0.435609
0.248148 0.935541 0.427689
0.419781 0.930184 0.419781
0.598617 0.924743 0.411888
0.768584 0.919217 0.404010
0.913609 0.913609 0.396149
1.000000 0.907920 0.388307
0.000000 1.000000 0.424808
0.000000 1.000000 0.416906
0.080616 1.000000 0.409018
0.224115 1.000000 0.401146
0.393292 1.000000 0.393292
0.572073 1.000000 0.385456
0.744386 1.000000 0.377641
0.894158 1.000000 0.369848
1.000000 1.000000 0.362078
0.000000 0.000000 0.808222
0.103838 0.000000 0.801383
0.253147 0.000000 0.794488
0.425240 0.000000 0.787539
0.604043 0.000000 0.780537
0.773484 0.000000 0.773484
0.917490 0.000000 0.766380
1.000000 0.000000 0.759228
1.000000 0.000000 0.752028
0.000000 0.090139 0.784996
0.084477 0.084477 0.777975
0.229003 0.078897 0.770904
0.398713 0.073400 0.763782
0.577535 0.067987 0.756612
0.749396 0.062659 0.749396
0.898223 0.057419 0.742134
1.000000 0.052266 0.734828
1.000000 0.047204 0.727479
0.000000 0.219370 0.761177
0.066037 0.212369 0.753990
0.205421 0.205421 0.746757
0.372390 0.198527 0.739479
0.550871 0.191689 0.732157
0.724793 0.184908 0.724793
0.878083 0.178186 0.717389
0.994666 0.171524 0.709945
1.000000 0.164923 0.702463
0.000000 0.369555 0.736818
0.048571 0.361786 0.729481
0.182454 0.354041 0.722102
0.346323 0.346323 0.714683
0.524106 0.338632 0.707225
0.699730 0.330970 0.699730
0.857123 0.323338 0.692199
0.980212 0.315737 0.684634
1.000000 0.308170 0.677035
0.000000 0.529171 0.711973
0.032134 0.521206 0.704501
0.160156 0.513236 0.696993
0.320567 0.505265 0.689449
0.497293 0.497293 0.681871
0.674261 0.489321 0.674261
0.835398 0.481351 0.666619
0.964633 0.473384 0.658947
1.000000 0.465422 0.651248
0.000000 0.686694 0.686694
0.016777 0.679104 0.679104
0.138582 0.671482 0.671482
0.295175 0.663829 0.663829
0.470484 0.656147 0.656147
0.648438 0.648438 0.648438
0.812961 0.640701 0.640701
0.947983 0.632940 0.632940
1.000000 0.625155 0.625155
0.000000 0.830601 0.661036
0.002556 0.823958 0.653344
0.117783 0.817255 0.645624
0.270201 0.810493 0.637878
0.443735 0.803673 0.630108
0.622315 0.796797 0.622315
0.789866 0.789866 0.614500
0.930316 0.782882 0.606664
1.000000 0.775845 0.598810
0.000000 0.949367 0.635052
0.000000 0.944244 0.627273
0.097815 0.939031 0.619472
0.245698 0.933732 0.611649
0.417099 0.928346 0.603807
0.595946 0.922875 0.595946
0.766166 0.917322 0.588068
0.911686 0.911686 0.580174
1.000000 0.905970 0.572266
0.000000 1.000000 0.608796
0.000000 1.000000 0.600947
0.078731 1.000000 0.593080
0.221720 1.000000 0.585196
0.390628 1.000000 0.577297
0.569384 1.000000 0.569384
0.741914 1.000000 0.561459
0.892146 1.000000 0.553524
1.000000 1.000000 0.545579
0.000000 0.000000 0.947791
0.101843 0.000000 0.942640
0.250686 0.000000 0.937400
0.422554 0.000000 0.932074
0.601376 0.000000 0.926662
0.771077 0.000000 0.921165
0.915586 0.000000 0.915586
1.000000 0.000000 0.909926
1.000000 0.000000 0.904185
0.000000 0.088207 0.930113
0.082573 0.082573 0.924670
0.226596 0.077021 0.919144
0.396046 0.071552 0.913535
0.574849 0.066168 0.907845
0.746934 0.060870 0.902076
0.896228 0.055659 0.896228
1.000000 0.050537 0.890304
1.000000 0.045506 0.884305
0.000000 0.216986 0.911472
0.064229 0.210003 0.905754
0.203073 0.203073 0.899956
0.369746 0.196198 0.894080
0.548173 0.189379 0.888129
0.722283 0.182618 0.882103
0.876003 0.175917 0.876003
0.993260 0.169275 0.869831
1.000000 0.162696 0.863590
0.000000 0.366914 0.891922
0.046865 0.359153 0.885943
0.180172 0.351417 0.879890
0.343708 0.343708 0.873764
0.521400 0.336026 0.867567
0.697177 0.328374 0.861300
0.854964 0.320753 0.854964
0.978689 0.313164 0.848561
1.000000 0.305608 0.842092
0.000000 0.526466 0.871516
0.030534 0.518500 0.865293
0.157945 0.510529 0.859001
0.317986 0.502557 0.852641
0.494585 0.494585 0.846213
0.671669 0.486614 0.839721
0.833165 0.478645 0.833165
0.963000 0.470679 0.826546
1.000000 0.462719 0.819866
0.000000 0.684120 0.850308
0.015289 0.676519 0.843857
0.136446 0.668887 0.837341
0.292634 0.661224 0.830762
0.467781 0.653532 0.824121
0.645813 0.645813 0.817420
0.810659 0.638068 0.810659
0.946245 0.630298 0.803840
1.000000 0.622506 0.796966
0.000000 0.828352 0.828352
0.001186 0.821688 0.821688
0.115729 0.814965 0.814965
0.267705 0.808183 0.808183
0.441040 0.801344 0.801344
0.619663 0.794449 0.794449
0.787500 0.787500 0.787500
0.928479 0.780498 0.780498
1.000000 0.773444 0.773444
0.000000 0.947637 0.805700
0.000000 0.942484 0.798840
0.095848 0.937241 0.791925
0.243252 0.931912 0.784957
0.414418 0.926497 0.777936
0.593272 0.920999 0.770864
0.763742 0.915417 0.763742
0.909754 0.909754 0.756572
1.000000 0.904011 0.749355
0.000000 1.000000 0.782407
0.000000 1.000000 0.775367
0.076855 1.000000 0.768276
0.219330 1.000000 0.761137
0.387968 1.000000 0.753950
0.566694 1.000000 0.746716
0.739438 1.000000 0.739438
0.890125 1.000000 0.732116
1.000000 1.000000 0.724752
0.000000 0.000000 1.000000
0.099858 0.000000 1.000000
0.248230 0.000000 1.000000
0.419870 0.000000 1.000000
0.598706 0.000000 1.000000
0.768665 0.000000 1.000000
0.913673 0.000000 1.000000
1.000000 0.000000 1.000000
1.000000 0.000000 1.000000
0.000000 0.086285 1.000000
0.080678 0.080678 1.000000
0.224195 0.075154 1.000000
0.393380 0.069714 1.000000
0.572162 0.064359 1.000000
0.744468 0.059090 1.000000
0.894225 0.053910 1.000000
1.000000 0.048818 1.000000
1.000000 0.043818 1.000000
0.000000 0.214609 1.000000
0.062431 0.207644 1.000000
0.200732 0.200732 1.000000
0.367104 0.193876 1.000000
0.545474 0.187077 1.000000
0.719768 0.180336 1.000000
0.873915 0.173654 0.995984
0.991841 0.167034 0.991841
1.000000 0.160475 0.987595
0.000000 0.364276 1.000000
0.045168 0.356523 1.000000
0.177896 0.348796 0.998564
0.341096 0.341096 0.994488
0.518694 0.333424 0.990307
0.694619 0.325782 0.986024
0.852797 0.318172 0.981640
0.977155 0.310594 0.977155
1.000000 0.303050 0.972573
0.000000 0.523761 0.992978
0.028944 0.515793 0.988760
0.155740 0.507822 0.984439
0.315409 0.499850 0.980018
0.491878 0.491878 0.975498
0.669074 0.483907 0.970880
0.830924 0.475939 0.966165
0.961356 0.467975 0.961356
1.000000 0.460017 0.956453
0.000000 0.681542 0.978384
0.013813 0.673931 0.973828
0.134318 0.666288 0.969175
0.290097 0.658615 0.964425
0.465077 0.650914 0.959581
0.643186 0.643186 0.954644
0.808350 0.635432 0.949616
0.944497 0.627654 0.944497
1.000000 0.619854 0.939288
0.000000 0.826095 0.962673
0.000000 0.819412 0.957795
0.113683 0.812668 0.952824
0.265214 0.805867 0.947762
0.438347 0.799009 0.942611
0.617009 0.792095 0.937371
0.785128 0.785128 0.932044
0.926631 0.778108 0.926631
1.000000 0.771037 0.921134
0.000000 0.945897 0.945897
0.000000 0.940713 0.940713
0.093889 0.935441 0.935441
0.240812 0.930083 0.930083
0.411739 0.924639 0.924639
0.590597 0.919112 0.919112
0.761312 0.913503 0.913503
0.907813 0.907813 0.907813
1.000000 0.902043 0.902043
0.000000 1.000000 0.928111
0.000000 1.000000 0.922637
0.074989 1.000000 0.917079
0.216947 1.000000 0.911440
0.385309 1.000000 0.905721
0.564003 1.000000 0.899923
0.736956 1.000000 0.894047
0.888095 1.000000 0.888095
1.000000 1.000000 0.882068
0.000000 0.000000 1.000000
0.097881 0.000000 1.000000
0.245779 0.000000 1.000000
0.417188 0.000000 1.000000
0.596035 0.000000 1.000000
0.766246 0.000000 1.000000
0.911750 0.000000 1.000000
1.000000 0.000000 1.000000
1.000000 0.000000 1.000000
0.000000 0.084372 1.000000
0.078793 0.078793 1.000000
0.221799 0.073297 1.000000
0.390717 0.067886 1.000000
0.569474 0.062560 1.000000
0.741997 0.057321 1.000000
0.892213 0.052170 1.000000
1.000000 0.047110 1.000000
1.000000 0.042140 1.000000
0.000000 0.212238 1.000000
0.060642 0.205290 1.000000
0.198398 0.198398 1.000000
0.364466 0.191561 1.000000
0.542774 0.184781 1.000000
0.717249 0.178060 1.000000
0.871819 0.171399 1.000000
0.990411 0.164799 1.000000
1.000000 0.158263 1.000000
0.000000 0.361640 1.000000
0.043482 0.353896 1.000000
0.175628 0.346178 1.000000
0.338487 0.338487 1.000000
0.515988 0.330826 1.000000
0.692057 0.323194 1.000000
0.850622 0.315595 1.000000
0.975610 0.308028 1.000000
1.000000 0.300496 1.000000
0.000000 0.521056 1.000000
0.027366 0.513086 1.000000
0.153544 0.505115 1.000000
0.312836 0.497143 1.000000
0.489171 0.489171 1.000000
0.666475 0.481201 1.000000
0.828676 0.473234 1.000000
0.959701 0.465272 1.000000
1.000000 0.457316 1.000000
0.000000 0.678961 1.000000
0.012348 0.671338 1.000000
0.132198 0.663685 1.000000
0.287565 0.656003 1.000000
0.462375 0.648292 1.000000
0.640555 0.640555 1.000000
0.806034 0.632793 1.000000
0.942738 0.625008 1.000000
1.000000 0.617200 1.000000
0.000000 0.823832 1.000000
0.000000 0.817128 1.000000
0.111646 0.810365 1.000000
0.262728 0.803544 1.000000
0.435654 0.796667 1.000000
0.614352 0.789735 1.000000
0.782750 0.782750 1.000000
0.924773 0.775712 1.000000
1.000000 0.768624 1.000000
0.000000 0.944147 1.000000
0.000000 0.938933 1.000000
0.091940 0.933631 1.000000
0.238378 0.928244 1.000000
0.409062 0.922772 1.000000
0.587919 0.917216 1.000000
0.758877 0.911579 1.000000
0.905862 0.905862 1.000000
1.000000 0.900066 1.000000
0.000000 1.000000 1.000000
0.000000 1.000000 1.000000
0.073133 1.000000 1.000000
0.214570 1.000000 1.000000
0.382653 1.000000 1.000000
0.561310 1.000000 1.000000
0.734469 1.000000 1.000000
0.886057 1.000000 1.000000
1.000000 1.000000 1.000000
