app/src/main/assets/luts/teal_orange.cube
TITLE "Teal Orange"
LUT_3D_SIZE 9
0.000000 0.014000 0.070000
0.085232 0.013256 0.066280
0.212465 0.012512 0.062559
0.339697 0.011768 0.058839
0.466929 0.011024 0.055118
0.594162 0.010280 0.051397
0.721394 0.009535 0.047677
0.848626 0.008791 0.043957
0.975858 0.008047 0.040236
0.000000 0.136497 0.057484
0.092742 0.135753 0.053764
0.219974 0.135009 0.050043
0.347206 0.134265 0.046323
0.474439 0.133520 0.042602
0.601671 0.132776 0.038882
0.728903 0.132032 0.035161
0.856136 0.131288 0.031441
0.983368 0.130544 0.027720
0.000000 0.258994 0.044968
0.100251 0.258250 0.041248
0.227484 0.257505 0.037527
0.354716 0.256761 0.033807
0.481948 0.256017 0.030086
0.609181 0.255273 0.026365
0.736413 0.254529 0.022645
0.863645 0.253785 0.018925
0.990878 0.253041 0.015204
0.000000 0.381490 0.032452
0.107761 0.380746 0.028732
0.234993 0.380002 0.025011
0.362226 0.379258 0.021291
0.489458 0.378514 0.017570
0.616690 0.377770 0.013849
0.743923 0.377026 0.010129
0.871155 0.376282 0.006409
0.998387 0.375538 0.002688
0.000000 0.503987 0.019936
0.115271 0.503243 0.016216
0.242503 0.502499 0.012495
0.369735 0.501755 0.008775
0.496968 0.501011 0.005054
0.624200 0.500267 0.001334
0.752387 0.499642 0.000000
0.881108 0.499084 0.000000
1.000000 0.498526 0.000000
0.000000 0.626484 0.007420
0.122780 0.625740 0.003700
0.250021 0.624997 0.000000
0.378742 0.624439 0.000000
0.507462 0.623881 0.000000
0.636182 0.623323 0.000000
0.764903 0.622765 0.000000
0.893624 0.622206 0.000000
1.000000 0.621648 0.000000
0.005096 0.749236 0.000000
0.133817 0.748678 0.000000
0.262537 0.748119 0.000000
0.391257 0.747561 0.000000
0.519978 0.747003 0.000000
0.648699 0.746445 0.000000
0.777419 0.745887 0.000000
0.906139 0.745329 0.000000
1.000000 0.744771 0.000000
0.017612 0.872358 0.000000
0.146332 0.871800 0.000000
0.275053 0.871242 0.000000
0.403774 0.870684 0.000000
0.532494 0.870126 0.000000
0.661215 0.869568 0.000000
0.789935 0.869010 0.000000
0.918655 0.868452 0.000000
1.000000 0.867894 0.000000
0.030128 0.995481 0.000000
0.158849 0.994923 0.000000
0.287569 0.994365 0.000000
0.416289 0.993807 0.000000
0.545010 0.993248 0.000000
0.673731 0.992690 0.000000
0.802451 0.992132 0.000000
0.931172 0.991574 0.000000
1.000000 0.991016 0.000000
0.000000 0.013747 0.193737
0.085990 0.013003 0.190016
0.213223 0.012259 0.186296
0.340455 0.011515 0.182575
0.467687 0.010771 0.178854
0.594920 0.010027 0.175134
0.722152 0.009283 0.171413
0.849384 0.008539 0.167693
0.976616 0.007795 0.163972
0.000000 0.136244 0.181221
0.093500 0.135500 0.177500
0.220732 0.134756 0.173780
0.347965 0.134012 0.170059
0.475197 0.133268 0.166339
0.602429 0.132524 0.162618
0.729661 0.131779 0.158897
0.856894 0.131035 0.155177
0.984126 0.130291 0.151456
0.000000 0.258741 0.168705
0.101010 0.257997 0.164984
0.228242 0.257253 0.161264
0.355474 0.256509 0.157543
0.482706 0.255765 0.153823
0.609939 0.255020 0.150102
0.737171 0.254276 0.146381
0.864403 0.253532 0.142661
0.991636 0.252788 0.138940
0.000000 0.381238 0.156189
0.108519 0.380494 0.152468
0.235752 0.379750 0.148748
0.362984 0.379005 0.145027
0.490216 0.378261 0.141307
0.617448 0.377517 0.137586
0.744681 0.376773 0.133865
0.871913 0.376029 0.130145
0.999145 0.375285 0.126424
0.000000 0.503734 0.143673
0.116029 0.502990 0.139952
0.243261 0.502246 0.136232
0.370493 0.501502 0.132511
0.497726 0.500758 0.128791
0.624958 0.500014 0.125070
0.753651 0.499452 0.122080
0.882371 0.498894 0.119103
1.000000 0.498336 0.116127
0.000000 0.626231 0.131157
0.123538 0.625487 0.127436
0.251284 0.624807 0.123972
0.380005 0.624249 0.120996
0.508725 0.623691 0.118020
0.637446 0.623133 0.115043
0.766166 0.622575 0.112067
0.894887 0.622017 0.109090
1.000000 0.621459 0.106114
0.006359 0.749046 0.119912
0.135080 0.748488 0.116936
0.263800 0.747930 0.113960
0.392521 0.747372 0.110983
0.521242 0.746814 0.108007
0.649962 0.746256 0.105030
0.778682 0.745698 0.102054
0.907403 0.745140 0.099078
1.000000 0.744581 0.096101
0.018875 0.872169 0.109900
0.147596 0.871611 0.106923
0.276316 0.871053 0.103947
0.405037 0.870494 0.100970
0.533757 0.869936 0.097994
0.662478 0.869378 0.095018
0.791199 0.868820 0.092041
0.919919 0.868262 0.089065
1.000000 0.867704 0.086088
0.031391 0.995291 0.099887
0.160112 0.994733 0.096910
0.288832 0.994175 0.093934
0.417553 0.993617 0.090958
0.546273 0.993059 0.087981
0.674994 0.992501 0.085005
0.803714 0.991943 0.082028
0.932435 0.991385 0.079052
1.000000 0.990827 0.076076
0.000000 0.013495 0.317473
0.086749 0.012751 0.313752
0.213981 0.012006 0.310032
0.341213 0.011262 0.306312
0.468445 0.010518 0.302591
0.595678 0.009774 0.298870
0.722910 0.009030 0.295150
0.850142 0.008286 0.291430
0.977375 0.007542 0.287709
0.000000 0.135991 0.304957
0.094258 0.135247 0.301237
0.221490 0.134503 0.297516
0.348723 0.133759 0.293795
0.475955 0.133015 0.290075
0.603187 0.132271 0.286355
0.730420 0.131527 0.282634
0.857652 0.130783 0.278913
0.984884 0.130039 0.275193
0.000000 0.258488 0.292441
0.101768 0.257744 0.288720
0.229000 0.257000 0.285000
0.356232 0.256256 0.281280
0.483465 0.255512 0.277559
0.610697 0.254768 0.273838
0.737929 0.254024 0.270118
0.865162 0.253279 0.266398
0.992394 0.252535 0.262677
0.000000 0.380985 0.279925
0.109277 0.380241 0.276205
0.236510 0.379497 0.272484
0.363742 0.378753 0.268763
0.490974 0.378009 0.265043
0.618206 0.377265 0.261323
0.745439 0.376520 0.257602
0.872671 0.375776 0.253881
0.999903 0.375032 0.250161
0.000000 0.503482 0.267409
0.116787 0.502738 0.263688
0.244019 0.501994 0.259968
0.371252 0.501250 0.256248
0.498484 0.500505 0.252527
0.626193 0.499821 0.249045
0.754914 0.499263 0.246069
0.883634 0.498705 0.243092
1.000000 0.498147 0.240116
0.000000 0.625979 0.254893
0.124297 0.625235 0.251173
0.252548 0.624618 0.247962
0.381269 0.624060 0.244985
0.509989 0.623502 0.242009
0.638710 0.622944 0.239032
0.767430 0.622386 0.236056
0.896150 0.621827 0.233080
1.000000 0.621269 0.230103
0.007623 0.748857 0.243902
0.136344 0.748298 0.240925
0.265064 0.747740 0.237949
0.393784 0.747182 0.234972
0.522505 0.746624 0.231996
0.651226 0.746066 0.229020
0.779946 0.745508 0.226043
0.908667 0.744950 0.223067
1.000000 0.744392 0.220090
0.020139 0.871979 0.233889
0.148859 0.871421 0.230912
0.277580 0.870863 0.227936
0.406301 0.870305 0.224960
0.535021 0.869747 0.221983
0.663741 0.869189 0.219007
0.792462 0.868631 0.216030
0.921183 0.868073 0.213054
1.000000 0.867515 0.210078
0.032655 0.995102 0.223876
0.161376 0.994544 0.220900
0.290096 0.993986 0.217923
0.418816 0.993428 0.214947
0.547537 0.992869 0.211970
0.676257 0.992311 0.208994
0.804978 0.991753 0.206018
0.933698 0.991195 0.203041
1.000000 0.990637 0.200065
0.000000 0.013242 0.441210
0.087507 0.012498 0.437489
0.214739 0.011754 0.433769
0.341971 0.011010 0.430048
0.469203 0.010266 0.426328
0.596436 0.009521 0.422607
0.723668 0.008777 0.418886
0.850900 0.008033 0.415166
0.978133 0.007289 0.411446
0.000000 0.135739 0.428694
0.095016 0.134995 0.424973
0.222248 0.134250 0.421253
0.349481 0.133506 0.417532
0.476713 0.132762 0.413811
0.603945 0.132018 0.410091
0.731178 0.131274 0.406370
0.858410 0.130530 0.402650
0.985642 0.129786 0.398929
0.000000 0.258236 0.416177
0.102526 0.257491 0.412457
0.229758 0.256747 0.408737
0.356990 0.256003 0.405016
0.484223 0.255259 0.401295
0.611455 0.254515 0.397575
0.738687 0.253771 0.393854
0.865920 0.253027 0.390134
0.993152 0.252283 0.386414
0.000000 0.380732 0.403662
0.110035 0.379988 0.399941
0.237268 0.379244 0.396220
0.364500 0.378500 0.392500
0.491732 0.377756 0.388780
0.618965 0.377012 0.385059
0.746197 0.376268 0.381339
0.873429 0.375524 0.377618
1.000000 0.374835 0.374118
0.000000 0.503229 0.391145
0.117545 0.502485 0.387425
0.244777 0.501741 0.383705
0.372010 0.500997 0.379984
0.499242 0.500253 0.376264
0.627457 0.499631 0.373034
0.756177 0.499073 0.370058
0.884898 0.498515 0.367082
1.000000 0.497957 0.364105
0.000000 0.625726 0.378630
0.125091 0.624986 0.374927
0.253811 0.624428 0.371951
0.382532 0.623870 0.368974
0.511252 0.623312 0.365998
0.639973 0.622754 0.363022
0.768694 0.622196 0.360045
0.897414 0.621638 0.357069
1.000000 0.621080 0.354092
0.008886 0.748667 0.367891
0.137607 0.748109 0.364914
0.266327 0.747551 0.361938
0.395048 0.746993 0.358962
0.523768 0.746435 0.355985
0.652489 0.745877 0.353009
0.781210 0.745319 0.350032
0.909930 0.744761 0.347056
1.000000 0.744202 0.344080
0.021402 0.871790 0.357878
0.150123 0.871232 0.354902
0.278843 0.870673 0.351925
0.407564 0.870115 0.348949
0.536285 0.869557 0.345972
0.665005 0.868999 0.342996
0.793725 0.868441 0.340020
0.922446 0.867883 0.337043
1.000000 0.867325 0.334067
0.033918 0.994912 0.347865
0.162639 0.994354 0.344889
0.291359 0.993796 0.341912
0.420080 0.993238 0.338936
0.548801 0.992680 0.335960
0.677521 0.992122 0.332983
0.806241 0.991564 0.330007
0.934962 0.991006 0.327030
1.000000 0.990448 0.324054
0.000000 0.012989 0.564946
0.088265 0.012245 0.561226
0.215497 0.011501 0.557505
0.342729 0.010757 0.553785
0.469962 0.010013 0.550064
0.597194 0.009269 0.546343
0.724426 0.008525 0.542623
0.851658 0.007781 0.538902
0.978891 0.007036 0.535182
0.000000 0.135486 0.552430
0.095774 0.134742 0.548709
0.223007 0.133998 0.544989
0.350239 0.133254 0.541269
0.477471 0.132510 0.537548
0.604703 0.131766 0.533828
0.731936 0.131021 0.530107
0.859168 0.130277 0.526386
0.986400 0.129533 0.522666
0.000000 0.257983 0.539914
0.103284 0.257239 0.536193
0.230516 0.256495 0.532473
0.357749 0.255750 0.528752
0.484981 0.255006 0.525032
0.612213 0.254262 0.521312
0.739445 0.253518 0.517591
0.866678 0.252774 0.513871
0.993910 0.252030 0.510150
0.000000 0.380480 0.527398
0.110794 0.379736 0.523678
0.238026 0.378991 0.519957
0.365258 0.378247 0.516236
0.492490 0.377503 0.512516
0.619723 0.376759 0.508795
0.746955 0.376015 0.505075
0.874187 0.375271 0.501355
1.000000 0.374645 0.498107
0.000000 0.502976 0.514882
0.118303 0.502232 0.511162
0.245535 0.501488 0.507441
0.372768 0.500744 0.503721
0.500000 0.500000 0.500000
0.628721 0.499442 0.497024
0.757441 0.498884 0.494047
0.886162 0.498326 0.491071
1.000000 0.497768 0.488094
0.000000 0.625473 0.502366
0.126355 0.624797 0.498916
0.255075 0.624239 0.495940
0.383796 0.623681 0.492964
0.512516 0.623123 0.489987
0.641236 0.622565 0.487011
0.769957 0.622006 0.484034
0.898678 0.621448 0.481058
1.000000 0.620890 0.478082
0.010150 0.748478 0.491880
0.138871 0.747919 0.488904
0.267591 0.747361 0.485927
0.396312 0.746803 0.482951
0.525032 0.746245 0.479974
0.653752 0.745687 0.476998
0.782473 0.745129 0.474022
0.911193 0.744571 0.471045
1.000000 0.744013 0.468069
0.022666 0.871600 0.481867
0.151387 0.871042 0.478891
0.280107 0.870484 0.475914
0.408828 0.869926 0.472938
0.537548 0.869368 0.469962
0.666269 0.868810 0.466985
0.794989 0.868252 0.464009
0.923709 0.867694 0.461032
1.000000 0.867135 0.458056
0.035182 0.994723 0.471854
0.163903 0.994165 0.468878
0.292623 0.993607 0.465902
0.421343 0.993048 0.462925
0.550064 0.992490 0.459949
0.678785 0.991932 0.456972
0.807505 0.991374 0.453996
0.936226 0.990816 0.451020
1.000000 0.990258 0.448043
0.000000 0.012737 0.688682
0.089023 0.011992 0.684962
0.216255 0.011248 0.681242
0.343487 0.010504 0.677521
0.470720 0.009760 0.673801
0.597952 0.009016 0.670080
0.725184 0.008272 0.666359
0.852417 0.007528 0.662639
0.979649 0.006784 0.658918
0.000000 0.135233 0.676167
0.096532 0.134489 0.672446
0.223765 0.133745 0.668725
0.350997 0.133001 0.665005
0.478229 0.132257 0.661285
0.605462 0.131513 0.657564
0.732694 0.130769 0.653844
0.859926 0.130025 0.650123
0.987159 0.129280 0.646402
0.000000 0.257730 0.663651
0.104042 0.256986 0.659930
0.231274 0.256242 0.656210
0.358507 0.255498 0.652489
0.485739 0.254754 0.648768
0.612971 0.254010 0.645048
0.740204 0.253265 0.641328
0.867436 0.252521 0.637607
0.994668 0.251777 0.633887
0.000000 0.380227 0.651135
0.111552 0.379483 0.647414
0.238784 0.378739 0.643694
0.366016 0.377995 0.639973
0.493248 0.377250 0.636252
0.620481 0.376506 0.632532
0.747713 0.375762 0.628811
0.874945 0.375018 0.625091
1.000000 0.374456 0.622096
0.000000 0.502724 0.638618
0.119061 0.501980 0.634898
0.246293 0.501236 0.631178
0.373526 0.500491 0.627457
0.501263 0.499810 0.623989
0.629984 0.499252 0.621013
0.758705 0.498694 0.618036
0.887425 0.498136 0.615060
1.000000 0.497578 0.612084
0.000000 0.625220 0.626103
0.127618 0.624607 0.622906
0.256338 0.624049 0.619929
0.385059 0.623491 0.616953
0.513779 0.622933 0.613976
0.642500 0.622375 0.611000
0.771220 0.621817 0.608024
0.899941 0.621259 0.605047
1.000000 0.620701 0.602071
0.011413 0.748288 0.615869
0.140134 0.747730 0.612893
0.268854 0.747172 0.609916
0.397575 0.746614 0.606940
0.526296 0.746056 0.603964
0.655016 0.745498 0.600987
0.783736 0.744940 0.598011
0.912457 0.744381 0.595034
1.000000 0.743823 0.592058
0.023929 0.871411 0.605856
0.152650 0.870853 0.602880
0.281370 0.870294 0.599904
0.410091 0.869736 0.596927
0.538811 0.869178 0.593951
0.667532 0.868620 0.590974
0.796253 0.868062 0.587998
0.924973 0.867504 0.585022
1.000000 0.866946 0.582045
0.036445 0.994533 0.595844
0.165166 0.993975 0.592867
0.293886 0.993417 0.589891
0.422607 0.992859 0.586914
0.551327 0.992301 0.583938
0.680048 0.991743 0.580962
0.808769 0.991185 0.577985
0.937489 0.990627 0.575009
1.000000 0.990069 0.572032
0.000000 0.012484 0.812419
0.089781 0.011740 0.808698
0.217013 0.010996 0.804978
0.344245 0.010252 0.801257
0.471478 0.009507 0.797537
0.598710 0.008763 0.793817
0.725942 0.008019 0.790096
0.853175 0.007275 0.786376
0.980407 0.006531 0.782655
0.000000 0.134981 0.799903
0.097291 0.134237 0.796183
0.224523 0.133492 0.792462
0.351755 0.132748 0.788741
0.478987 0.132004 0.785021
0.606220 0.131260 0.781300
0.733452 0.130516 0.777580
0.860684 0.129772 0.773860
0.987917 0.129028 0.770139
0.000000 0.257477 0.787387
0.104800 0.256733 0.783667
0.232032 0.255989 0.779946
0.359265 0.255245 0.776226
0.486497 0.254501 0.772505
0.613729 0.253757 0.768784
0.740962 0.253013 0.765064
0.868194 0.252269 0.761343
0.995426 0.251525 0.757623
0.000000 0.379974 0.774871
0.112310 0.379230 0.771150
0.239542 0.378486 0.767430
0.366774 0.377742 0.763710
0.494007 0.376998 0.759989
0.621239 0.376254 0.756269
0.748471 0.375510 0.752548
0.876173 0.374824 0.749062
1.000000 0.374266 0.746086
0.000000 0.502471 0.762355
0.119819 0.501727 0.758634
0.247052 0.500983 0.754914
0.374284 0.500239 0.751193
0.502527 0.499621 0.747978
0.631247 0.499063 0.745002
0.759968 0.498505 0.742026
0.888688 0.497947 0.739049
1.000000 0.497389 0.736073
0.000161 0.624976 0.749871
0.128882 0.624418 0.746895
0.257602 0.623860 0.743918
0.386323 0.623302 0.740942
0.515043 0.622744 0.737966
0.643764 0.622185 0.734989
0.772484 0.621627 0.732013
0.901204 0.621069 0.729036
1.000000 0.620511 0.726060
0.012677 0.748098 0.739858
0.141398 0.747540 0.736882
0.270118 0.746982 0.733906
0.398838 0.746424 0.730929
0.527559 0.745866 0.727953
0.656280 0.745308 0.724976
0.785000 0.744750 0.722000
0.913721 0.744192 0.719024
1.000000 0.743634 0.716047
0.025193 0.871221 0.729846
0.153914 0.870663 0.726869
0.282634 0.870105 0.723893
0.411355 0.869547 0.720916
0.540075 0.868989 0.717940
0.668795 0.868431 0.714964
0.797516 0.867873 0.711987
0.926237 0.867315 0.709011
1.000000 0.866756 0.706034
0.037709 0.994344 0.719833
0.166430 0.993786 0.716856
0.295150 0.993228 0.713880
0.423871 0.992669 0.710904
0.552591 0.992111 0.707927
0.681311 0.991553 0.704951
0.810032 0.990995 0.701974
0.938752 0.990437 0.698998
1.000000 0.989879 0.696022
0.000000 0.012231 0.936156
0.090539 0.011487 0.932435
0.217771 0.010743 0.928714
0.345004 0.009999 0.924994
0.472236 0.009255 0.921273
0.599468 0.008511 0.917553
0.726700 0.007766 0.913833
0.853933 0.007022 0.910112
0.981165 0.006278 0.906392
0.000000 0.134728 0.923639
0.098049 0.133984 0.919919
0.225281 0.133240 0.916199
0.352513 0.132496 0.912478
0.479745 0.131751 0.908757
0.606978 0.131007 0.905037
0.734210 0.130263 0.901316
0.861442 0.129519 0.897596
0.988675 0.128775 0.893876
0.000000 0.257225 0.911123
0.105558 0.256481 0.907403
0.232791 0.255736 0.903683
0.360023 0.254992 0.899962
0.487255 0.254248 0.896242
0.614487 0.253504 0.892521
0.741720 0.252760 0.888800
0.868952 0.252016 0.885080
0.996184 0.251272 0.881359
0.000000 0.379721 0.898608
0.113068 0.378977 0.894887
0.240300 0.378233 0.891166
0.367532 0.377489 0.887446
0.494765 0.376745 0.883726
0.621997 0.376001 0.880005
0.749229 0.375257 0.876285
0.877436 0.374635 0.873051
1.000000 0.374077 0.870075
0.000000 0.502218 0.886092
0.120577 0.501474 0.882371
0.247810 0.500730 0.878651
0.375070 0.499989 0.874944
0.503791 0.499431 0.871968
0.632511 0.498873 0.868991
0.761231 0.498315 0.866015
0.889952 0.497757 0.863038
1.000000 0.497199 0.860062
0.001424 0.624786 0.873860
0.130145 0.624228 0.870884
0.258865 0.623670 0.867908
0.387586 0.623112 0.864931
0.516307 0.622554 0.861955
0.645027 0.621996 0.858978
0.773748 0.621438 0.856002
0.902468 0.620880 0.853026
1.000000 0.620322 0.850049
0.013940 0.747909 0.863848
0.142661 0.747351 0.860871
0.271381 0.746793 0.857895
0.400102 0.746235 0.854918
0.528822 0.745677 0.851942
0.657543 0.745119 0.848966
0.786264 0.744560 0.845989
0.914984 0.744002 0.843013
1.000000 0.743444 0.840036
0.026456 0.871032 0.853835
0.155177 0.870473 0.850858
0.283897 0.869915 0.847882
0.412618 0.869357 0.844906
0.541338 0.868799 0.841929
0.670059 0.868241 0.838953
0.798779 0.867683 0.835976
0.927500 0.867125 0.833000
1.000000 0.866567 0.830024
0.038972 0.994154 0.843822
0.167693 0.993596 0.840846
0.296413 0.993038 0.837869
0.425134 0.992480 0.834893
0.553855 0.991922 0.831916
0.682575 0.991364 0.828940
0.811295 0.990806 0.825964
0.940016 0.990248 0.822987
1.000000 0.989690 0.820011
0.000000 0.011978 1.000000
0.091297 0.011234 1.000000
0.218529 0.010490 1.000000
0.345762 0.009746 1.000000
0.472994 0.009002 1.000000
0.600226 0.008258 1.000000
0.727459 0.007514 1.000000
0.854691 0.006770 1.000000
0.981923 0.006026 1.000000
0.000000 0.134475 1.000000
0.098807 0.133731 1.000000
0.226039 0.132987 1.000000
0.353271 0.132243 1.000000
0.480504 0.131499 1.000000
0.607736 0.130755 1.000000
0.734968 0.130011 1.000000
0.862201 0.129267 1.000000
0.989433 0.128522 1.000000
0.000000 0.256972 1.000000
0.106316 0.256228 1.000000
0.233549 0.255484 1.000000
0.360781 0.254740 1.000000
0.488013 0.253996 1.000000
0.615246 0.253252 1.000000
0.742478 0.252507 1.000000
0.869710 0.251763 1.000000
0.996942 0.251019 1.000000
0.000000 0.379469 1.000000
0.113826 0.378725 1.000000
0.241058 0.377981 1.000000
0.368291 0.377236 1.000000
0.495523 0.376492 1.000000
0.622755 0.375748 1.000000
0.749987 0.375004 1.000000
0.878699 0.374445 0.997040
1.000000 0.373887 0.994064
0.000000 0.501966 1.000000
0.121335 0.501221 1.000000
0.248568 0.500477 1.000000
0.376333 0.499800 0.998933
0.505054 0.499242 0.995957
0.633775 0.498684 0.992980
0.762495 0.498126 0.990004
0.891216 0.497568 0.987028
1.000000 0.497010 0.984051
0.002688 0.624597 0.997850
0.131409 0.624039 0.994873
0.260129 0.623481 0.991897
0.388850 0.622923 0.988920
0.517570 0.622364 0.985944
0.646290 0.621806 0.982968
0.775011 0.621248 0.979991
0.903732 0.620690 0.977015
1.000000 0.620132 0.974038
0.015204 0.747719 0.987837
0.143925 0.747161 0.984860
0.272645 0.746603 0.981884
0.401366 0.746045 0.978908
0.530086 0.745487 0.975931
0.658807 0.744929 0.972955
0.787527 0.744371 0.969978
0.916247 0.743813 0.967002
1.000000 0.743255 0.964026
0.027720 0.870842 0.977824
0.156440 0.870284 0.974848
0.285161 0.869726 0.971871
0.413882 0.869168 0.968895
0.542602 0.868610 0.965918
0.671323 0.868052 0.962942
0.800043 0.867494 0.959966
0.928763 0.866935 0.956989
1.000000 0.866377 0.954013
0.040236 0.993965 0.967811
0.168957 0.993407 0.964835
0.297677 0.992848 0.961858
0.426397 0.992290 0.958882
0.555118 0.991732 0.955906
0.683839 0.991174 0.952929
0.812559 0.990616 0.949953
0.941280 0.990058 0.946976
1.000000 0.989500 0.944000
