app/src/main/assets/luts/teal_orange.cube
TITLE "Teal Orange"
LUT_3D_SIZE 17
0.000000 0.014000 0.070000
0.021616 0.013628 0.068140
0.085232 0.013256 0.066280
0.148848 0.012884 0.064419
0.212465 0.012512 0.062559
0.276081 0.012140 0.060699
0.339697 0.011768 0.058839
0.403313 0.011396 0.056978
0.466929 0.011024 0.055118
0.530545 0.010652 0.053258
0.594162 0.010280 0.051397
0.657778 0.009907 0.049537
0.721394 0.009535 0.047677
0.785010 0.009163 0.045817
0.848626 0.008791 0.043957
0.912242 0.008419 0.042096
0.975858 0.008047 0.040236
0.000000 0.075248 0.063742
0.025371 0.074876 0.061882
0.088987 0.074504 0.060022
0.152603 0.074132 0.058161
0.216219 0.073760 0.056301
0.279836 0.073388 0.054441
0.343452 0.073016 0.052581
0.407068 0.072644 0.050720
0.470684 0.072272 0.048860
0.534300 0.071900 0.047000
0.597916 0.071528 0.045139
0.661532 0.071156 0.043279
0.725149 0.070784 0.041419
0.788765 0.070412 0.039559
0.852381 0.070040 0.037699
0.915997 0.069668 0.035838
0.979613 0.069296 0.033978
0.000000 0.136497 0.057484
0.029126 0.136125 0.055624
0.092742 0.135753 0.053764
0.156358 0.135381 0.051903
0.219974 0.135009 0.050043
0.283590 0.134637 0.048183
0.347206 0.134265 0.046323
0.410823 0.133892 0.044462
0.474439 0.133520 0.042602
0.538055 0.133148 0.040742
0.601671 0.132776 0.038882
0.665287 0.132404 0.037021
0.728903 0.132032 0.035161
0.792520 0.131660 0.033301
0.856136 0.131288 0.031441
0.919752 0.130916 0.029580
0.983368 0.130544 0.027720
0.000000 0.197745 0.051226
0.032881 0.197373 0.049366
0.096497 0.197001 0.047506
0.160113 0.196629 0.045645
0.223729 0.196257 0.043785
0.287345 0.195885 0.041925
0.350961 0.195513 0.040065
0.414577 0.195141 0.038204
0.478194 0.194769 0.036344
0.541810 0.194397 0.034484
0.605426 0.194025 0.032623
0.669042 0.193653 0.030763
0.732658 0.193281 0.028903
0.796274 0.192909 0.027043
0.859891 0.192536 0.025183
0.923507 0.192164 0.023322
0.987123 0.191792 0.021462
0.000000 0.258994 0.044968
0.036635 0.258622 0.043108
0.100251 0.258250 0.041248
0.163868 0.257877 0.039387
0.227484 0.257505 0.037527
0.291100 0.257133 0.035667
0.354716 0.256761 0.033807
0.418332 0.256389 0.031946
0.481948 0.256017 0.030086
0.545565 0.255645 0.028226
0.609181 0.255273 0.026365
0.672797 0.254901 0.024505
0.736413 0.254529 0.022645
0.800029 0.254157 0.020785
0.863645 0.253785 0.018925
0.927261 0.253413 0.017064
0.990878 0.253041 0.015204
0.000000 0.320242 0.038710
0.040390 0.319870 0.036850
0.104006 0.319498 0.034990
0.167622 0.319126 0.033129
0.231239 0.318754 0.031269
0.294855 0.318382 0.029409
0.358471 0.318010 0.027549
0.422087 0.317638 0.025688
0.485703 0.317266 0.023828
0.549319 0.316894 0.021968
0.612935 0.316522 0.020108
0.676552 0.316149 0.018247
0.740168 0.315777 0.016387
0.803784 0.315405 0.014527
0.867400 0.315033 0.012667
0.931016 0.314661 0.010806
0.994632 0.314289 0.008946
0.000000 0.381490 0.032452
0.044145 0.381118 0.030592
0.107761 0.380746 0.028732
0.171377 0.380374 0.026871
0.234993 0.380002 0.025011
0.298610 0.379630 0.023151
0.362226 0.379258 0.021291
0.425842 0.378886 0.019430
0.489458 0.378514 0.017570
0.553074 0.378142 0.015710
0.616690 0.377770 0.013849
0.680306 0.377398 0.011989
0.743923 0.377026 0.010129
0.807539 0.376654 0.008269
0.871155 0.376282 0.006409
0.934771 0.375910 0.004548
0.998387 0.375538 0.002688
0.000000 0.442739 0.026194
0.047900 0.442367 0.024334
0.111516 0.441995 0.022474
0.175132 0.441623 0.020613
0.238748 0.441251 0.018753
0.302364 0.440879 0.016893
0.365980 0.440507 0.015033
0.429597 0.440134 0.013172
0.493213 0.439762 0.011312
0.556829 0.439390 0.009452
0.620445 0.439018 0.007592
0.684061 0.438646 0.005731
0.747677 0.438274 0.003871
0.811294 0.437902 0.002011
0.874910 0.437530 0.000151
0.939210 0.437244 0.000000
1.000000 0.436964 0.000000
0.000000 0.503987 0.019936
0.051655 0.503615 0.018076
0.115271 0.503243 0.016216
0.178887 0.502871 0.014355
0.242503 0.502499 0.012495
0.306119 0.502127 0.010635
0.369735 0.501755 0.008775
0.433351 0.501383 0.006914
0.496968 0.501011 0.005054
0.560584 0.500639 0.003194
0.624200 0.500267 0.001334
0.688027 0.499921 0.000000
0.752387 0.499642 0.000000
0.816747 0.499363 0.000000
0.881108 0.499084 0.000000
0.945468 0.498805 0.000000
1.000000 0.498526 0.000000
0.000000 0.565236 0.013678
0.055409 0.564864 0.011818
0.119026 0.564492 0.009957
0.182642 0.564119 0.008097
0.246258 0.563747 0.006237
0.309874 0.563375 0.004377
0.373490 0.563003 0.002517
0.437106 0.562631 0.000656
0.501204 0.562319 0.000000
0.565564 0.562040 0.000000
0.629924 0.561761 0.000000
0.694285 0.561482 0.000000
0.758645 0.561203 0.000000
0.823005 0.560924 0.000000
0.887366 0.560645 0.000000
0.951726 0.560366 0.000000
1.000000 0.560087 0.000000
0.000000 0.626484 0.007420
0.059164 0.626112 0.005560
0.122780 0.625740 0.003700
0.186396 0.625368 0.001839
0.250021 0.624997 0.000000
0.314381 0.624718 0.000000
0.378742 0.624439 0.000000
0.443102 0.624160 0.000000
0.507462 0.623881 0.000000
0.571822 0.623602 0.000000
0.636182 0.623323 0.000000
0.700543 0.623044 0.000000
0.764903 0.622765 0.000000
0.829263 0.622486 0.000000
0.893624 0.622206 0.000000
0.957984 0.621927 0.000000
1.000000 0.621648 0.000000
0.000000 0.687732 0.001162
0.063198 0.687395 0.000000
0.127558 0.687116 0.000000
0.191919 0.686837 0.000000
0.256279 0.686558 0.000000
0.320639 0.686279 0.000000
0.384999 0.686000 0.000000
0.449360 0.685721 0.000000
0.513720 0.685442 0.000000
0.578080 0.685163 0.000000
0.642440 0.684884 0.000000
0.706801 0.684605 0.000000
0.771161 0.684326 0.000000
0.835521 0.684047 0.000000
0.899882 0.683768 0.000000
0.964242 0.683489 0.000000
1.000000 0.683210 0.000000
0.005096 0.749236 0.000000
0.069456 0.748957 0.000000
0.133817 0.748678 0.000000
0.198177 0.748398 0.000000
0.262537 0.748119 0.000000
0.326897 0.747840 0.000000
0.391257 0.747561 0.000000
0.455618 0.747282 0.000000
0.519978 0.747003 0.000000
0.584338 0.746724 0.000000
0.648699 0.746445 0.000000
0.713059 0.746166 0.000000
0.777419 0.745887 0.000000
0.841779 0.745608 0.000000
0.906139 0.745329 0.000000
0.970500 0.745050 0.000000
1.000000 0.744771 0.000000
0.011354 0.810797 0.000000
0.075714 0.810518 0.000000
0.140074 0.810239 0.000000
0.204435 0.809960 0.000000
0.268795 0.809681 0.000000
0.333155 0.809402 0.000000
0.397516 0.809123 0.000000
0.461876 0.808844 0.000000
0.526236 0.808565 0.000000
0.590596 0.808286 0.000000
0.654957 0.808007 0.000000
0.719317 0.807727 0.000000
0.783677 0.807448 0.000000
0.848037 0.807169 0.000000
0.912397 0.806890 0.000000
0.976758 0.806611 0.000000
1.000000 0.806332 0.000000
0.017612 0.872358 0.000000
0.081972 0.872079 0.000000
0.146332 0.871800 0.000000
0.210693 0.871521 0.000000
0.275053 0.871242 0.000000
0.339413 0.870963 0.000000
0.403774 0.870684 0.000000
0.468134 0.870405 0.000000
0.532494 0.870126 0.000000
0.596854 0.869847 0.000000
0.661215 0.869568 0.000000
0.725575 0.869289 0.000000
0.789935 0.869010 0.000000
0.854295 0.868731 0.000000
0.918655 0.868452 0.000000
0.983016 0.868173 0.000000
1.000000 0.867894 0.000000
0.023870 0.933920 0.000000
0.088230 0.933640 0.000000
0.152591 0.933361 0.000000
0.216951 0.933082 0.000000
0.281311 0.932803 0.000000
0.345671 0.932524 0.000000
0.410031 0.932245 0.000000
0.474392 0.931966 0.000000
0.538752 0.931687 0.000000
0.603112 0.931408 0.000000
0.667473 0.931129 0.000000
0.731833 0.930850 0.000000
0.796193 0.930571 0.000000
0.860553 0.930292 0.000000
0.924913 0.930013 0.000000
0.989274 0.929734 0.000000
1.000000 0.929455 0.000000
0.030128 0.995481 0.000000
0.094488 0.995202 0.000000
0.158849 0.994923 0.000000
0.223209 0.994644 0.000000
0.287569 0.994365 0.000000
0.351929 0.994086 0.000000
0.416289 0.993807 0.000000
0.480650 0.993528 0.000000
0.545010 0.993248 0.000000
0.609370 0.992969 0.000000
0.673731 0.992690 0.000000
0.738091 0.992411 0.000000
0.802451 0.992132 0.000000
0.866811 0.991853 0.000000
0.931172 0.991574 0.000000
0.995532 0.991295 0.000000
1.000000 0.991016 0.000000
0.000000 0.013874 0.131868
0.021995 0.013502 0.130008
0.085611 0.013130 0.128148
0.149227 0.012758 0.126287
0.212844 0.012385 0.124427
0.276460 0.012013 0.122567
0.340076 0.011641 0.120707
0.403692 0.011269 0.118847
0.467308 0.010897 0.116986
0.530924 0.010525 0.115126
0.594541 0.010153 0.113266
0.658157 0.009781 0.111406
0.721773 0.009409 0.109545
0.785389 0.009037 0.107685
0.849005 0.008665 0.105825
0.912621 0.008293 0.103965
0.976237 0.007921 0.102104
0.000000 0.075122 0.125610
0.025750 0.074750 0.123750
0.089366 0.074378 0.121890
0.152982 0.074006 0.120030
0.216598 0.073634 0.118169
0.280215 0.073262 0.116309
0.343831 0.072890 0.114449
0.407447 0.072518 0.112589
0.471063 0.072146 0.110728
0.534679 0.071774 0.108868
0.598295 0.071402 0.107008
0.661911 0.071029 0.105148
0.725528 0.070657 0.103287
0.789144 0.070285 0.101427
0.852760 0.069913 0.099567
0.916376 0.069541 0.097707
0.979992 0.069169 0.095846
0.000000 0.136370 0.119352
0.029505 0.135998 0.117492
0.093121 0.135626 0.115632
0.156737 0.135254 0.113772
0.220353 0.134882 0.111911
0.283969 0.134510 0.110051
0.347586 0.134138 0.108191
0.411202 0.133766 0.106330
0.474818 0.133394 0.104470
0.538434 0.133022 0.102610
0.602050 0.132650 0.100750
0.665666 0.132278 0.098889
0.729282 0.131906 0.097029
0.792899 0.131534 0.095169
0.856515 0.131162 0.093309
0.920131 0.130790 0.091449
0.983747 0.130418 0.089588
0.000000 0.197619 0.113094
0.033260 0.197247 0.111234
0.096876 0.196875 0.109374
0.160492 0.196503 0.107514
0.224108 0.196131 0.105653
0.287724 0.195759 0.103793
0.351340 0.195387 0.101933
0.414957 0.195015 0.100073
0.478573 0.194642 0.098212
0.542189 0.194270 0.096352
0.605805 0.193898 0.094492
0.669421 0.193526 0.092632
0.733037 0.193154 0.090771
0.796653 0.192782 0.088911
0.860270 0.192410 0.087051
0.923886 0.192038 0.085191
0.987502 0.191666 0.083330
0.000000 0.258867 0.106836
0.037014 0.258495 0.104976
0.100631 0.258123 0.103116
0.164247 0.257751 0.101255
0.227863 0.257379 0.099395
0.291479 0.257007 0.097535
0.355095 0.256635 0.095675
0.418711 0.256263 0.093814
0.482327 0.255891 0.091954
0.545944 0.255519 0.090094
0.609560 0.255147 0.088234
0.673176 0.254775 0.086374
0.736792 0.254403 0.084513
0.800408 0.254031 0.082653
0.864024 0.253659 0.080793
0.927640 0.253287 0.078933
0.991257 0.252914 0.077072
0.000000 0.320116 0.100578
0.040769 0.319744 0.098718
0.104385 0.319372 0.096858
0.168001 0.318999 0.094998
0.231618 0.318627 0.093137
0.295234 0.318255 0.091277
0.358850 0.317883 0.089417
0.422466 0.317511 0.087557
0.486082 0.317139 0.085696
0.549698 0.316767 0.083836
0.613315 0.316395 0.081976
0.676931 0.316023 0.080116
0.740547 0.315651 0.078255
0.804163 0.315279 0.076395
0.867779 0.314907 0.074535
0.931395 0.314535 0.072675
0.995011 0.314163 0.070814
0.000000 0.381364 0.094320
0.044524 0.380992 0.092460
0.108140 0.380620 0.090600
0.171756 0.380248 0.088739
0.235372 0.379876 0.086879
0.298989 0.379504 0.085019
0.362605 0.379132 0.083159
0.426221 0.378760 0.081299
0.489837 0.378388 0.079438
0.553453 0.378016 0.077578
0.617069 0.377644 0.075718
0.680685 0.377271 0.073858
0.744302 0.376899 0.071997
0.807918 0.376527 0.070137
0.871534 0.376155 0.068277
0.935150 0.375783 0.066417
0.998766 0.375411 0.064556
0.000000 0.442612 0.088062
0.048279 0.442240 0.086202
0.111895 0.441868 0.084342
0.175511 0.441496 0.082482
0.239127 0.441124 0.080621
0.302743 0.440752 0.078761
0.366360 0.440380 0.076901
0.429976 0.440008 0.075041
0.493592 0.439636 0.073180
0.557208 0.439264 0.071320
0.620824 0.438892 0.069460
0.684440 0.438520 0.067600
0.748056 0.438148 0.065739
0.811673 0.437776 0.063879
0.875481 0.437428 0.062115
0.939841 0.437149 0.060627
1.000000 0.436870 0.059139
0.000000 0.503861 0.081804
0.052034 0.503489 0.079944
0.115650 0.503117 0.078084
0.179266 0.502745 0.076223
0.242882 0.502373 0.074363
0.306498 0.502001 0.072503
0.370114 0.501629 0.070643
0.433731 0.501256 0.068783
0.497347 0.500884 0.066922
0.560963 0.500512 0.065062
0.624579 0.500140 0.063202
0.688658 0.499826 0.061573
0.753019 0.499547 0.060085
0.817379 0.499268 0.058597
0.881739 0.498989 0.057109
0.946099 0.498710 0.055620
1.000000 0.498431 0.054132
0.000000 0.565109 0.075546
0.055788 0.564737 0.073686
0.119405 0.564365 0.071826
0.183021 0.563993 0.069965
0.246637 0.563621 0.068105
0.310253 0.563249 0.066245
0.373869 0.562877 0.064385
0.437485 0.562505 0.062525
0.501836 0.562225 0.061031
0.566196 0.561946 0.059543
0.630556 0.561667 0.058055
0.694917 0.561388 0.056567
0.759277 0.561108 0.055079
0.823637 0.560829 0.053590
0.887997 0.560550 0.052102
0.952357 0.560271 0.050614
1.000000 0.559992 0.049126
0.000000 0.626358 0.069288
0.059543 0.625986 0.067428
0.123159 0.625614 0.065568
0.186775 0.625242 0.063708
0.250653 0.624902 0.061978
0.315013 0.624623 0.060490
0.379373 0.624344 0.059001
0.443734 0.624065 0.057513
0.508094 0.623786 0.056025
0.572454 0.623507 0.054537
0.636814 0.623228 0.053049
0.701175 0.622949 0.051560
0.765535 0.622670 0.050072
0.829895 0.622391 0.048584
0.894255 0.622112 0.047096
0.958615 0.621833 0.045608
1.000000 0.621554 0.044119
0.000000 0.687606 0.063030
0.063830 0.687300 0.061436
0.128190 0.687021 0.059948
0.192550 0.686742 0.058460
0.256911 0.686463 0.056971
0.321271 0.686184 0.055483
0.385631 0.685905 0.053995
0.449991 0.685626 0.052507
0.514352 0.685347 0.051019
0.578712 0.685068 0.049530
0.643072 0.684789 0.048042
0.707433 0.684510 0.046554
0.771793 0.684231 0.045066
0.836153 0.683952 0.043578
0.900513 0.683673 0.042089
0.964874 0.683394 0.040601
1.000000 0.683115 0.039113
0.005728 0.749141 0.057918
0.070088 0.748862 0.056430
0.134448 0.748583 0.054941
0.198808 0.748304 0.053453
0.263169 0.748025 0.051965
0.327529 0.747746 0.050477
0.391889 0.747467 0.048989
0.456249 0.747188 0.047500
0.520610 0.746909 0.046012
0.584970 0.746629 0.044524
0.649330 0.746350 0.043036
0.713691 0.746071 0.041548
0.778051 0.745792 0.040059
0.842411 0.745513 0.038571
0.906771 0.745234 0.037083
0.971132 0.744955 0.035595
1.000000 0.744676 0.034107
0.011986 0.810702 0.052911
0.076346 0.810423 0.051423
0.140706 0.810144 0.049935
0.205067 0.809865 0.048447
0.269427 0.809586 0.046959
0.333787 0.809307 0.045470
0.398147 0.809028 0.043982
0.462508 0.808749 0.042494
0.526868 0.808470 0.041006
0.591228 0.808191 0.039518
0.655588 0.807912 0.038029
0.719948 0.807633 0.036541
0.784309 0.807354 0.035053
0.848669 0.807075 0.033565
0.913029 0.806796 0.032077
0.977390 0.806517 0.030588
1.000000 0.806238 0.029100
0.018244 0.872263 0.047905
0.082604 0.871984 0.046417
0.146964 0.871705 0.044929
0.211324 0.871426 0.043440
0.275685 0.871147 0.041952
0.340045 0.870868 0.040464
0.404405 0.870589 0.038976
0.468766 0.870310 0.037488
0.533126 0.870031 0.035999
0.597486 0.869752 0.034511
0.661846 0.869473 0.033023
0.726206 0.869194 0.031535
0.790567 0.868915 0.030047
0.854927 0.868636 0.028558
0.919287 0.868357 0.027070
0.983648 0.868078 0.025582
1.000000 0.867799 0.024094
0.024502 0.933825 0.042899
0.088862 0.933546 0.041410
0.153222 0.933267 0.039922
0.217583 0.932988 0.038434
0.281943 0.932709 0.036946
0.346303 0.932430 0.035458
0.410663 0.932151 0.033969
0.475024 0.931871 0.032481
0.539384 0.931592 0.030993
0.603744 0.931313 0.029505
0.668104 0.931034 0.028017
0.732464 0.930755 0.026528
0.796825 0.930476 0.025040
0.861185 0.930197 0.023552
0.925545 0.929918 0.022064
0.989905 0.929639 0.020576
1.000000 0.929360 0.019087
0.030760 0.995386 0.037892
0.095120 0.995107 0.036404
0.159480 0.994828 0.034916
0.223840 0.994549 0.033428
0.288201 0.994270 0.031939
0.352561 0.993991 0.030451
0.416921 0.993712 0.028963
0.481282 0.993433 0.027475
0.545642 0.993154 0.025987
0.610002 0.992875 0.024498
0.674362 0.992596 0.023010
0.738722 0.992317 0.021522
0.803083 0.992038 0.020034
0.867443 0.991759 0.018546
0.931803 0.991480 0.017057
0.996163 0.991200 0.015569
1.000000 0.990921 0.014081
0.000000 0.013747 0.193737
0.022374 0.013375 0.191876
0.085990 0.013003 0.190016
0.149607 0.012631 0.188156
0.213223 0.012259 0.186296
0.276839 0.011887 0.184435
0.340455 0.011515 0.182575
0.404071 0.011143 0.180715
0.467687 0.010771 0.178854
0.531303 0.010399 0.176994
0.594920 0.010027 0.175134
0.658536 0.009655 0.173274
0.722152 0.009283 0.171413
0.785768 0.008911 0.169553
0.849384 0.008539 0.167693
0.913000 0.008167 0.165833
0.976616 0.007795 0.163972
0.000000 0.074996 0.187478
0.026129 0.074624 0.185618
0.089745 0.074252 0.183758
0.153361 0.073880 0.181898
0.216977 0.073508 0.180038
0.280594 0.073135 0.178177
0.344210 0.072763 0.176317
0.407826 0.072391 0.174457
0.471442 0.072019 0.172597
0.535058 0.071647 0.170736
0.598674 0.071275 0.168876
0.662291 0.070903 0.167016
0.725907 0.070531 0.165156
0.789523 0.070159 0.163295
0.853139 0.069787 0.161435
0.916755 0.069415 0.159575
0.980371 0.069043 0.157715
0.000000 0.136244 0.181221
0.029884 0.135872 0.179360
0.093500 0.135500 0.177500
0.157116 0.135128 0.175640
0.220732 0.134756 0.173780
0.284348 0.134384 0.171919
0.347965 0.134012 0.170059
0.411581 0.133640 0.168199
0.475197 0.133268 0.166339
0.538813 0.132896 0.164478
0.602429 0.132524 0.162618
0.666045 0.132152 0.160758
0.729661 0.131779 0.158897
0.793278 0.131407 0.157037
0.856894 0.131035 0.155177
0.920510 0.130663 0.153317
0.984126 0.130291 0.151456
0.000000 0.197493 0.174963
0.033639 0.197120 0.173102
0.097255 0.196748 0.171242
0.160871 0.196376 0.169382
0.224487 0.196004 0.167522
0.288103 0.195632 0.165661
0.351719 0.195260 0.163801
0.415336 0.194888 0.161941
0.478952 0.194516 0.160081
0.542568 0.194144 0.158220
0.606184 0.193772 0.156360
0.669800 0.193400 0.154500
0.733416 0.193028 0.152640
0.797032 0.192656 0.150779
0.860649 0.192284 0.148919
0.924265 0.191912 0.147059
0.987881 0.191540 0.145199
0.000000 0.258741 0.168705
0.037393 0.258369 0.166844
0.101010 0.257997 0.164984
0.164626 0.257625 0.163124
0.228242 0.257253 0.161264
0.291858 0.256881 0.159403
0.355474 0.256509 0.157543
0.419090 0.256137 0.155683
0.482706 0.255765 0.153823
0.546323 0.255392 0.151962
0.609939 0.255020 0.150102
0.673555 0.254648 0.148242
0.737171 0.254276 0.146381
0.800787 0.253904 0.144521
0.864403 0.253532 0.142661
0.928020 0.253160 0.140801
0.991636 0.252788 0.138940
0.000000 0.319989 0.162446
0.041148 0.319617 0.160586
0.104764 0.319245 0.158726
0.168381 0.318873 0.156866
0.231997 0.318501 0.155006
0.295613 0.318129 0.153145
0.359229 0.317757 0.151285
0.422845 0.317385 0.149425
0.486461 0.317013 0.147565
0.550077 0.316641 0.145704
0.613694 0.316269 0.143844
0.677310 0.315897 0.141984
0.740926 0.315525 0.140124
0.804542 0.315153 0.138263
0.868158 0.314781 0.136403
0.931774 0.314409 0.134543
0.995390 0.314036 0.132683
0.000000 0.381238 0.156189
0.044903 0.380866 0.154328
0.108519 0.380494 0.152468
0.172135 0.380122 0.150608
0.235752 0.379750 0.148748
0.299368 0.379377 0.146887
0.362984 0.379005 0.145027
0.426600 0.378633 0.143167
0.490216 0.378261 0.141307
0.553832 0.377889 0.139446
0.617448 0.377517 0.137586
0.681065 0.377145 0.135726
0.744681 0.376773 0.133865
0.808297 0.376401 0.132005
0.871913 0.376029 0.130145
0.935529 0.375657 0.128285
0.999145 0.375285 0.126424
0.000000 0.442486 0.149931
0.048658 0.442114 0.148070
0.112274 0.441742 0.146210
0.175890 0.441370 0.144350
0.239506 0.440998 0.142489
0.303122 0.440626 0.140629
0.366739 0.440254 0.138769
0.430355 0.439882 0.136909
0.493971 0.439510 0.135049
0.557587 0.439138 0.133188
0.621203 0.438766 0.131328
0.684819 0.438394 0.129468
0.748436 0.438022 0.127608
0.812052 0.437649 0.125747
0.876113 0.437333 0.124110
0.940473 0.437054 0.122621
1.000000 0.436775 0.121133
0.000000 0.503734 0.143673
0.052413 0.503362 0.141812
0.116029 0.502990 0.139952
0.179645 0.502618 0.138092
0.243261 0.502246 0.136232
0.306877 0.501874 0.134371
0.370493 0.501502 0.132511
0.434110 0.501130 0.130651
0.497726 0.500758 0.128791
0.561342 0.500386 0.126930
0.624958 0.500014 0.125070
0.689290 0.499731 0.123568
0.753651 0.499452 0.122080
0.818011 0.499173 0.120591
0.882371 0.498894 0.119103
0.946731 0.498615 0.117615
1.000000 0.498336 0.116127
0.000000 0.564983 0.137414
0.056167 0.564611 0.135554
0.119784 0.564239 0.133694
0.183400 0.563867 0.131834
0.247016 0.563495 0.129973
0.310632 0.563123 0.128113
0.374248 0.562751 0.126253
0.438107 0.562409 0.124514
0.502467 0.562130 0.123026
0.566828 0.561851 0.121538
0.631188 0.561572 0.120050
0.695548 0.561293 0.118561
0.759908 0.561014 0.117073
0.824269 0.560735 0.115585
0.888629 0.560456 0.114097
0.952989 0.560177 0.112609
1.000000 0.559898 0.111120
0.000000 0.626231 0.131157
0.059922 0.625859 0.129296
0.123538 0.625487 0.127436
0.187155 0.625115 0.125576
0.251284 0.624807 0.123972
0.315645 0.624528 0.122484
0.380005 0.624249 0.120996
0.444365 0.623970 0.119508
0.508725 0.623691 0.118020
0.573086 0.623412 0.116531
0.637446 0.623133 0.115043
0.701806 0.622854 0.113555
0.766166 0.622575 0.112067
0.830527 0.622296 0.110579
0.894887 0.622017 0.109090
0.959247 0.621738 0.107602
1.000000 0.621459 0.106114
0.000101 0.687485 0.124919
0.064462 0.687206 0.123431
0.128822 0.686927 0.121942
0.193182 0.686648 0.120454
0.257543 0.686369 0.118966
0.321903 0.686090 0.117478
0.386263 0.685811 0.115990
0.450623 0.685532 0.114501
0.514984 0.685252 0.113013
0.579344 0.684973 0.111525
0.643704 0.684694 0.110037
0.708064 0.684415 0.108549
0.772424 0.684136 0.107060
0.836785 0.683857 0.105572
0.901145 0.683578 0.104084
0.965505 0.683299 0.102596
1.000000 0.683020 0.101108
0.006359 0.749046 0.119912
0.070720 0.748767 0.118424
0.135080 0.748488 0.116936
0.199440 0.748209 0.115448
0.263800 0.747930 0.113960
0.328161 0.747651 0.112471
0.392521 0.747372 0.110983
0.456881 0.747093 0.109495
0.521242 0.746814 0.108007
0.585602 0.746535 0.106519
0.649962 0.746256 0.105030
0.714322 0.745977 0.103542
0.778682 0.745698 0.102054
0.843043 0.745419 0.100566
0.907403 0.745140 0.099078
0.971763 0.744861 0.097589
1.000000 0.744581 0.096101
0.012617 0.810607 0.114906
0.076978 0.810328 0.113418
0.141338 0.810049 0.111930
0.205698 0.809770 0.110441
0.270058 0.809491 0.108953
0.334419 0.809212 0.107465
0.398779 0.808933 0.105977
0.463139 0.808654 0.104489
0.527500 0.808375 0.103000
0.591860 0.808096 0.101512
0.656220 0.807817 0.100024
0.720580 0.807538 0.098536
0.784941 0.807259 0.097048
0.849301 0.806980 0.095559
0.913661 0.806701 0.094071
0.978021 0.806422 0.092583
1.000000 0.806143 0.091095
0.018875 0.872169 0.109900
0.083236 0.871890 0.108411
0.147596 0.871611 0.106923
0.211956 0.871332 0.105435
0.276316 0.871053 0.103947
0.340677 0.870773 0.102459
0.405037 0.870494 0.100970
0.469397 0.870215 0.099482
0.533757 0.869936 0.097994
0.598118 0.869657 0.096506
0.662478 0.869378 0.095018
0.726838 0.869099 0.093529
0.791199 0.868820 0.092041
0.855559 0.868541 0.090553
0.919919 0.868262 0.089065
0.984279 0.867983 0.087577
1.000000 0.867704 0.086088
0.025133 0.933730 0.104893
0.089494 0.933451 0.103405
0.153854 0.933172 0.101917
0.218214 0.932893 0.100429
0.282575 0.932614 0.098940
0.346935 0.932335 0.097452
0.411295 0.932056 0.095964
0.475655 0.931777 0.094476
0.540015 0.931498 0.092988
0.604376 0.931219 0.091499
0.668736 0.930940 0.090011
0.733096 0.930661 0.088523
0.797457 0.930382 0.087035
0.861817 0.930102 0.085547
0.926177 0.929823 0.084058
0.990537 0.929544 0.082570
1.000000 0.929265 0.081082
0.031391 0.995291 0.099887
0.095752 0.995012 0.098399
0.160112 0.994733 0.096910
0.224472 0.994454 0.095422
0.288832 0.994175 0.093934
0.353193 0.993896 0.092446
0.417553 0.993617 0.090958
0.481913 0.993338 0.089469
0.546273 0.993059 0.087981
0.610634 0.992780 0.086493
0.674994 0.992501 0.085005
0.739354 0.992222 0.083517
0.803714 0.991943 0.082028
0.868075 0.991664 0.080540
0.932435 0.991385 0.079052
0.996795 0.991106 0.077564
1.000000 0.990827 0.076076
0.000000 0.013621 0.255605
0.022753 0.013249 0.253745
0.086369 0.012877 0.251884
0.149986 0.012505 0.250024
0.213602 0.012133 0.248164
0.277218 0.011761 0.246304
0.340834 0.011389 0.244443
0.404450 0.011017 0.242583
0.468066 0.010645 0.240723
0.531683 0.010273 0.238863
0.595299 0.009900 0.237002
0.658915 0.009528 0.235142
0.722531 0.009156 0.233282
0.786147 0.008784 0.231422
0.849763 0.008412 0.229561
0.913379 0.008040 0.227701
0.976996 0.007668 0.225841
0.000000 0.074869 0.249347
0.026508 0.074497 0.247486
0.090124 0.074125 0.245626
