app/src/main/assets/luts/teal_orange.cube
TITLE "Teal Orange"
LUT_3D_SIZE 5
0.000000 0.014000 0.070000
0.212465 0.012512 0.062559
0.466929 0.011024 0.055118
0.721394 0.009535 0.047677
0.975858 0.008047 0.040236
0.000000 0.258994 0.044968
0.227484 0.257505 0.037527
0.481948 0.256017 0.030086
0.736413 0.254529 0.022645
0.990878 0.253041 0.015204
0.000000 0.503987 0.019936
0.242503 0.502499 0.012495
0.496968 0.501011 0.005054
0.752387 0.499642 0.000000
1.000000 0.498526 0.000000
0.005096 0.749236 0.000000
0.262537 0.748119 0.000000
0.519978 0.747003 0.000000
0.777419 0.745887 0.000000
1.000000 0.744771 0.000000
0.030128 0.995481 0.000000
0.287569 0.994365 0.000000
0.545010 0.993248 0.000000
0.802451 0.992132 0.000000
1.000000 0.991016 0.000000
0.000000 0.013495 0.317473
0.213981 0.012006 0.310032
0.468445 0.010518 0.302591
0.722910 0.009030 0.295150
0.977375 0.007542 0.287709
0.000000 0.258488 0.292441
0.229000 0.257000 0.285000
0.483465 0.255512 0.277559
0.737929 0.254024 0.270118
0.992394 0.252535 0.262677
0.000000 0.503482 0.267409
0.244019 0.501994 0.259968
0.498484 0.500505 0.252527
0.754914 0.499263 0.246069
1.000000 0.498147 0.240116
0.007623 0.748857 0.243902
0.265064 0.747740 0.237949
0.522505 0.746624 0.231996
0.779946 0.745508 0.226043
1.000000 0.744392 0.220090
0.032655 0.995102 0.223876
0.290096 0.993986 0.217923
0.547537 0.992869 0.211970
0.804978 0.991753 0.206018
1.000000 0.990637 0.200065
0.000000 0.012989 0.564946
0.215497 0.011501 0.557505
0.469962 0.010013 0.550064
0.724426 0.008525 0.542623
0.978891 0.007036 0.535182
0.000000 0.257983 0.539914
0.230516 0.256495 0.532473
0.484981 0.255006 0.525032
0.739445 0.253518 0.517591
0.993910 0.252030 0.510150
0.000000 0.502976 0.514882
0.245535 0.501488 0.507441
0.500000 0.500000 0.500000
0.757441 0.498884 0.494047
1.000000 0.497768 0.488094
0.010150 0.748478 0.491880
0.267591 0.747361 0.485927
0.525032 0.746245 0.479974
0.782473 0.745129 0.474022
1.000000 0.744013 0.468069
0.035182 0.994723 0.471854
0.292623 0.993607 0.465902
0.550064 0.992490 0.459949
0.807505 0.991374 0.453996
1.000000 0.990258 0.448043
0.000000 0.012484 0.812419
0.217013 0.010996 0.804978
0.471478 0.009507 0.797537
0.725942 0.008019 0.790096
0.980407 0.006531 0.782655
0.000000 0.257477 0.787387
0.232032 0.255989 0.779946
0.486497 0.254501 0.772505
0.740962 0.253013 0.765064
0.995426 0.251525 0.757623
0.000000 0.502471 0.762355
0.247052 0.500983 0.754914
0.502527 0.499621 0.747978
0.759968 0.498505 0.742026
1.000000 0.497389 0.736073
0.012677 0.748098 0.739858
0.270118 0.746982 0.733906
0.527559 0.745866 0.727953
0.785000 0.744750 0.722000
1.000000 0.743634 0.716047
0.037709 0.994344 0.719833
0.295150 0.993228 0.713880
0.552591 0.992111 0.707927
0.810032 0.990995 0.701974
1.000000 0.989879 0.696022
0.000000 0.011978 1.000000
0.218529 0.010490 1.000000
0.472994 0.009002 1.000000
0.727459 0.007514 1.000000
0.981923 0.006026 1.000000
0.000000 0.256972 1.000000
0.233549 0.255484 1.000000
0.488013 0.253996 1.000000
0.742478 0.252507 1.000000
0.996942 0.251019 1.000000
0.000000 0.501966 1.000000
0.248568 0.500477 1.000000
0.505054 0.499242 0.995957
0.762495 0.498126 0.990004
1.000000 0.497010 0.984051
0.015204 0.747719 0.987837
0.272645 0.746603 0.981884
0.530086 0.745487 0.975931
0.787527 0.744371 0.969978
1.000000 0.743255 0.964026
0.040236 0.993965 0.967811
0.297677 0.992848 0.961858
0.555118 0.991732 0.955906
0.812559 0.990616 0.949953
1.000000 0.989500 0.944000
